!!!!SEGMENT: pl-sa--177-a-v-7--007_luna-georgius--missa-ex-d-agnus.krn
!!!cenid: 17xx:471
!!!COM: Luna, Georgius
!!!COM-rism: pe41010079
!!!CDT:
!!!CNT:
!!!OTL: Missa ex D – Agnus
!!!PDT:
!!!AGN: Sacred; Mass
!!!SMS-siglum: PL-SA
!!!SMS-shelfmark: 177/A V 7
!!!NIFC-rismID: 1001035883
!!!URL-scan: http://bc.bdsandomierz.pl/dlibra/publication/1512/edition/1480/content
!!!ONB-nifc: UWAGA; części Mszy: Sinfonia, Kyrie, Gloria, Patrem, Sanctus, Benedictus, Agnus, Dona. UWAGA: brak partii cornu primo, cornu secundo
!!!SMS-variant:
!!!SMS-altvar:
**kern	**dynam	**kern	**dynam	**kern	**dynam	**kern	**text	**kern	**text	**kern	**kern	**kern	**kern
*part9	*part9	*part8	*part8	*part7	*part7	*part6	*part6	*part5	*part5	*part4	*part3	*part2	*part1
*staff9	*	*staff8	*	*staff7	*	*staff6	*staff6	*staff5	*staff5	*staff4	*staff3	*staff2	*staff1
*I"Fundamento	*	*I"Violino Secundo	*	*I"Violino Primo	*	*I"Tenor	*	*I"Canto	*	*I"Clarino Secundo	*I"Clarino Primo	*I"Hobois 2do	*I"Hobois Primo
*I'bc	*	*I'vl 2	*	*I'vl 1	*	*I'T	*	*I'C	*	*I'clar 1	*I'clar 1	*I'ob 2	*I'ob 1
*clefF4	*	*clefG2	*	*clefG2	*	*clefC4	*	*clefC1	*	*clefG2	*clefG2	*clefG2	*clefG2
*	*	*	*	*	*	*	*	*	*	*ITrd-1c-2	*ITrd-1c-2	*	*
*k[f#c#]	*	*k[f#c#]	*	*k[f#c#]	*	*k[f#c#]	*	*k[f#c#]	*	*k[f#c#]	*k[f#c#]	*k[f#c#]	*k[f#c#]
*D:	*	*D:	*	*D:	*	*D:	*	*D:	*	*	*	*D:	*D:
*M4/4	*	*M4/4	*	*M4/4	*	*M4/4	*	*M4/4	*	*M4/4	*M4/4	*M4/4	*M4/4
*met(c)	*	*met(c)	*	*met(c)	*	*met(c)	*	*met(c)	*	*met(c)	*met(c)	*met(c)	*met(c)
=1	=1	=1	=1	=1	=1	=1	=1	=1	=1	=1	=1	=1	=1
!LO:TX:rj:i:b:t=Agnus	!	!	!	!	!	!	!	!	!	!	!	!	!
!LO:TX:a:i:t=Solo	!	!LO:TX:rj:i:b:t=Agnus	!	!LO:TX:rj:i:a:t=Adagio	!	!	!	!	!	!LO:TX:rj:i:a:t=Adagio	!LO:TX:rj:i:a:t=Adagio	!	!
!LO:TX:rj:i:a:t=Adagio	!	!LO:TX:rj:i:a:t=Adagio	!	!LO:TX:rj:i:b:t=Agnus	!	!	!	!	!	!LO:TX:rj:i:b:t=Agnus	!LO:TX:rj:i:b:t=Agnus	!	!
8D\L	.	16.a/LL	.	16.dd\LL	.	00r	.	00r	.	4dd\	4ff#\	1ryy	1ryy
.	.	32f#/K	.	32a\K	.	.	.	.	.	.	.	.	.
8D\	.	16.f#/	.	16.a\	.	.	.	.	.	.	.	.	.
.	.	32g/JJk	.	32b\JJk	.	.	.	.	.	.	.	.	.
8G\	.	16.g/LL	.	16.b\LL	.	.	.	.	.	8r	8r	.	.
.	.	32e/K	.	32cc#\K	.	.	.	.	.	.	.	.	.
8A\J	.	16.e/	.	16.cc#\	.	.	.	.	.	8a/	8ee\	.	.
.	.	32f#/JJk	.	32dd\JJk	.	.	.	.	.	.	.	.	.
8D\L	.	16.f#/LL	.	16.dd\LL	.	.	.	.	.	4dd\	4ff#\	.	.
.	.	32f#/K	.	32a\K	.	.	.	.	.	.	.	.	.
8D\	.	16.f#/	.	16.a\	.	.	.	.	.	.	.	.	.
.	.	32g/JJk	.	32b\JJk	.	.	.	.	.	.	.	.	.
8G\	.	16.g/LL	.	16.b\LL	.	.	.	.	.	8r	8r	.	.
.	.	32e/K	.	32cc#\K	.	.	.	.	.	.	.	.	.
8A\J	.	16.e/	.	16.cc#\	.	.	.	.	.	8a/	8ee\	.	.
.	.	32f#/JJk	.	32dd\JJk	.	.	.	.	.	.	.	.	.
=2	=2	=2	=2	=2	=2	=2	=2	=2	=2	=2	=2	=2	=2
8D\L	.	8f#/L	.	8dd\L	.	.	.	.	.	8dd\L	8ff#\L	1ryy	1ryy
8D\	.	8a/	.	16aa\L	.	.	.	.	.	8dd\	8ff#\	.	.
.	.	.	.	16gg\JJ	.	.	.	.	.	.	.	.	.
8D\	.	8a/	.	16ff#\LL	.	.	.	.	.	8dd\	8ff#\	.	.
.	.	.	.	16ee\	.	.	.	.	.	.	.	.	.
8D\J	.	8a/J	.	16dd\	.	.	.	.	.	8dd\J	8ff#\J	.	.
.	.	.	.	16cc#\JJ	.	.	.	.	.	.	.	.	.
8D\L	.	(16a\LL	.	16dd\LL	.	.	.	.	.	8dd\L	8ff#\L	.	.
.	.	16ccn\)	.	16aa\	.	.	.	.	.	.	.	.	.
8D\	.	(16a\	.	16ccn\	.	.	.	.	.	8dd\	8ff#\	.	.
.	.	16g\JJ)	.	16b\JJ	.	.	.	.	.	.	.	.	.
8D\	.	16a\LL	.	16cc\LL	.	.	.	.	.	8dd\	8ff#\	.	.
.	.	16cc\	.	16aa\	.	.	.	.	.	.	.	.	.
8D\J	.	16a\	.	16cc\	.	.	.	.	.	8dd\J	8ff#\J	.	.
.	.	16f#\JJ	.	16a\JJ	.	.	.	.	.	.	.	.	.
=3	=3	=3	=3	=3	=3	=3	=3	=3	=3	=3	=3	=3	=3
!	!	!	!	!LO:TX:t=P:problem:mixed beam	!	!	!	!	!	!	!	!	!
8G\L	.	8g/L	.	8b/L	.	.	.	.	.	8dd\L	8gg\L	1ryy	1ryy
8E\	.	8b\	.	16bb\L	.	.	.	.	.	8ee\	8gg#X\	.	.
.	.	.	.	16aa\JJ	.	.	.	.	.	.	.	.	.
8E\	.	8b\	.	16gg#X\LL	.	.	.	.	.	8ee\	8gg#\	.	.
.	.	.	.	16ff#\	.	.	.	.	.	.	.	.	.
8E\J	.	8b\J	.	16ee\	.	.	.	.	.	8ee\J	8gg#\J	.	.
.	.	.	.	16dd#X\JJ	.	.	.	.	.	.	.	.	.
8E\L	.	16b\LL	.	16ee\LL	.	.	.	.	.	8ee\L	8gg#\L	.	.
.	.	16dd\	.	16bb\	.	.	.	.	.	.	.	.	.
8E\	.	16b\	.	16ddn\	.	.	.	.	.	8ee\	8gg#\	.	.
!	!	!LO:SIC:s=:v:16g#	!	!	!	!	!	!	!	!	!	!	!
.	.	16g\JJ	.	16cc#\JJ	.	.	.	.	.	.	.	.	.
8E\	.	16b\LL	.	16dd\LL	.	.	.	.	.	8ee\	8gg#\	.	.
.	.	16dd\	.	16bb\	.	.	.	.	.	.	.	.	.
8E\J	.	16b\	.	16dd\	.	.	.	.	.	8ee\J	8gg#\J	.	.
.	.	16g#X\JJ	.	16b\JJ	.	.	.	.	.	.	.	.	.
=4	=4	=4	=4	=4	=4	=4	=4	=4	=4	=4	=4	=4	=4
!LO:TX:t=P:problem:mixed beam	!	!	!	!	!	!	!	!	!	!	!	!	!
8A\L	.	8a\L	.	8cc#\L	.	.	.	.	.	8ee\L	8aa\L	1ryy	1ryy
8AA/	.	(16cc#\L	.	16ee\L	.	.	.	.	.	8a\	8ee\	.	.
.	.	16dd\JJ)	.	16ff#\JJ	.	.	.	.	.	.	.	.	.
*	*	*Xtuplet	*	*Xtuplet	*	*	*	*	*	*	*	*	*
!	!	!LO:TX:t=P:problem:klamra łukowa, kropka zamiast numeru	!	!LO:TX:t=P:problem:klamra łukowa, kropka zamiast numeru	!	!	!	!	!	!	!	!	!
8AA/	.	24ee\LL	.	24gg\LL	.	.	.	.	.	8a\	8ee\	.	.
.	.	24dd\	.	24ff#\	.	.	.	.	.	.	.	.	.
.	.	24cc#\JJ	.	24ee\JJ	.	.	.	.	.	.	.	.	.
!	!	!LO:TX:t=P:problem:klamra łukowa, kropka zamiast numeru	!	!LO:TX:t=P:problem:klamra łukowa, kropka zamiast numeru	!	!	!	!	!	!	!	!	!
8AA/J	.	24ggn\LL	.	24bb\LL	.	.	.	.	.	8a\J	8ee\J	.	.
.	.	24ff#\	.	24aa\	.	.	.	.	.	.	.	.	.
.	.	24ee\JJ	.	24gg\JJ	.	.	.	.	.	.	.	.	.
!	!	!LO:TX:t=P:problem:mixed beam	!	!LO:TX:t=P:problem:mixed beam	!	!	!	!	!	!	!	!	!
8D\L	.	8dd\L	.	8ff#\L	.	.	.	.	.	8dd\L	8ff#\L	.	.
8AA/	.	16c#/L	.	16e/L	.	.	.	.	.	8a\	8ee\	.	.
.	.	16d/JJ	.	16f#/JJ	.	.	.	.	.	.	.	.	.
!	!	!LO:TX:t=P:problem:klamra łukowa, kropka zamiast numeru	!	!LO:TX:t=P:problem:klamra łukowa, kropka zamiast numeru	!	!	!	!	!	!	!	!	!
8AA/	.	24e/LL	.	24g/LL	.	.	.	.	.	8a\	8ee\	.	.
.	.	24d/	.	24f#/	.	.	.	.	.	.	.	.	.
.	.	24c#/JJ	.	24e/JJ	.	.	.	.	.	.	.	.	.
!	!	!LO:TX:t=P:problem:klamra łukowa, kropka zamiast numeru	!	!LO:TX:t=P:problem:klamra łukowa, kropka zamiast numeru	!	!	!	!	!	!	!	!	!
8AA/J	.	24g/LL	.	24b\LL	.	.	.	.	.	8a\J	8ee\J	.	.
.	.	24f#/	.	24a/	.	.	.	.	.	.	.	.	.
.	.	24e/JJ	.	24g/JJ	.	.	.	.	.	.	.	.	.
!	!	!	!	!LO:LB:g=oiginal	!	!	!	!	!	!	!	!	!
=5	=5	=5	=5	=5	=5	=5	=5	=5	=5	=5	=5	=5	=5
!	!	!	!	!LO:TX:t=P:problem:mixed beam	!	!	!	!	!	!	!	!	!
8D\L	.	16d/LL	.	16f#/LL	.	00r	.	00r	.	8dd\	8ff#\	1ryy	1ryy
.	.	16f#/	.	(16dd\	.	.	.	.	.	.	.	.	.
8D\	.	16e/	.	16cc#\	.	.	.	.	.	8r	8r	.	.
.	.	16f#/JJ	.	16dd\JJ)	.	.	.	.	.	.	.	.	.
8D\	.	16r	.	16r	.	.	.	.	.	8dd\	8ff#\	.	.
.	.	(16f#/LL	.	(16dd\LL	.	.	.	.	.	.	.	.	.
8D\J	.	16e/	.	16cc#\	.	.	.	.	.	8r	8r	.	.
.	.	16f#/JJ)	.	16dd\JJ)	.	.	.	.	.	.	.	.	.
!	!	!LO:LB:g=original	!	!	!	!	!	!	!	!	!	!	!
8G\L	.	16r	.	16r	.	.	.	.	.	8a/L	8ee\L	.	.
.	.	16gg\LL	.	(16bb\LL	.	.	.	.	.	.	.	.	.
8G\	.	16gg\	.	16bb\)	.	.	.	.	.	8a/	8ee\	.	.
.	.	16ff#\JJ	.	16aa\JJ	.	.	.	.	.	.	.	.	.
8A\	.	16ff#\LL	.	(16aa\LL	.	.	.	.	.	8a/	8ee\	.	.
.	.	16ee\	.	16gg\)	.	.	.	.	.	.	.	.	.
8A\J	.	16ee\	.	(16gg\	.	.	.	.	.	8a/J	8ee\J	.	.
.	.	16cc#\JJ	.	16ee\JJ)	.	.	.	.	.	.	.	.	.
=6	=6	=6	=6	=6	=6	=6	=6	=6	=6	=6	=6	=6	=6
!	!	!LO:TX:t=P:problem:mixed beam	!	!	!	!	!	!	!	!	!	!	!
!	!LO:DY:a	!	!LO:DY:a:t=p&colon;	!	!LO:DY:a:t=p.	!	!	!	!	!	!	!	!
8D\L	p	16dd\LL	p	16ff#\LL	p	.	.	.	.	4dd\	4ff#\	1ryy	1ryy
.	.	(16f#/	.	(16dd\	.	.	.	.	.	.	.	.	.
8D\	.	16e/	.	16cc#\	.	.	.	.	.	.	.	.	.
.	.	16f#/JJ)	.	16dd\JJ)	.	.	.	.	.	.	.	.	.
8D\	.	16r	.	16r	.	.	.	.	.	4r	4r	.	.
.	.	(16f#/LL	.	(16dd\LL	.	.	.	.	.	.	.	.	.
8D\J	.	16e/	.	16cc#\	.	.	.	.	.	.	.	.	.
.	.	16f#/JJ)	.	16dd\JJ)	.	.	.	.	.	.	.	.	.
8G\L	.	16r	.	16r	.	.	.	.	.	2r	2r	.	.
.	.	(16g/LL	.	(16b\LL	.	.	.	.	.	.	.	.	.
8G\	.	16g/	.	16b\	.	.	.	.	.	.	.	.	.
.	.	16f#/JJ)	.	16a/JJ)	.	.	.	.	.	.	.	.	.
8A\	.	(16f#/LL	.	(16a/LL	.	.	.	.	.	.	.	.	.
.	.	16e/)	.	16g/)	.	.	.	.	.	.	.	.	.
8A\J	.	(16e/	.	(16g/	.	.	.	.	.	.	.	.	.
.	.	16c#/JJ)	.	16e/JJ)	.	.	.	.	.	.	.	.	.
=7	=7	=7	=7	=7	=7	=7	=7	=7	=7	=7	=7	=7	=7
*tremolo	*	*	*	*	*	*	*	*	*	*	*	*	*
*2\right	*	*	*	*	*	*	*	*	*	*	*	*	*
!	!LO:DY:a	!	!LO:DY:a	!	!LO:DY:a	!	!	!	!	!	!	!	!
8D\L	f	8d/L	f	16.f#/LL	f	.	.	.	.	8r	8r	1ryy	1ryy
.	.	.	.	32d/JJk	.	.	.	.	.	.	.	.	.
8D\	.	8a/	.	16.f#/LL	.	.	.	.	.	8dd\L	8dd\L	.	.
.	.	.	.	32a/JJk	.	.	.	.	.	.	.	.	.
8D\	.	8a/	.	16.dd\LL	.	.	.	.	.	8dd\	8dd\	.	.
.	.	.	.	32ff#\JJk	.	.	.	.	.	.	.	.	.
8D\J	.	8a/J	.	16.a\LL	.	.	.	.	.	8dd\J	8dd\J	.	.
.	.	.	.	32ccn\JJk	.	.	.	.	.	.	.	.	.
!	!	!LO:TX:t=P:problem:mixed beam	!	!	!	!	!	!	!	!	!	!	!
8G\L	.	8d/L	.	16.b\LL	.	.	.	.	.	8dd\L	8dd\L	.	.
.	.	.	.	32e/JJk	.	.	.	.	.	.	.	.	.
8G\	.	8b\	.	16.g/LL	.	.	.	.	.	8ee\	8ee\	.	.
.	.	.	.	32b\JJk	.	.	.	.	.	.	.	.	.
8G\	.	8b\	.	(16.ee\LL	.	.	.	.	.	8ee\	8ee\	.	.
.	.	.	.	32gg\JJk)	.	.	.	.	.	.	.	.	.
8G\J	.	8b\J	.	(16.b\LL	.	.	.	.	.	8ee\J	8ee\J	.	.
.	.	.	.	32dd\JJk)	.	.	.	.	.	.	.	.	.
=8	=8	=8	=8	=8	=8	=8	=8	=8	=8	=8	=8	=8	=8
8A\L	.	16.a/LL	.	16.cc#\LL	.	.	.	.	.	8ee\L	8ee\L	1ryy	1ryy
.	.	32d/JJk	.	32a/JJk	.	.	.	.	.	.	.	.	.
8A\	.	16.a/LL	.	16.cc#\LL	.	.	.	.	.	8a\	8ee\	.	.
.	.	32cc#\JJk	.	32ee\JJk	.	.	.	.	.	.	.	.	.
8A\	.	16.ee\LL	.	16.gg\LL	.	.	.	.	.	8a\	8ee\	.	.
.	.	32gg\JJk	.	32bb\JJk	.	.	.	.	.	.	.	.	.
8A\J	.	16.cc#\LL	.	16.ee\LL	.	.	.	.	.	8a\J	8ee\J	.	.
.	.	32ee\JJk	.	32gg\JJk	.	.	.	.	.	.	.	.	.
!LO:TX:t=P:problem:mixed beam	!	!	!	!	!	!	!	!	!	!	!	!	!
8D\L	.	8dd\L	.	16ff#\LL	.	.	.	.	.	4dd\	4ff#\	.	.
.	.	.	.	16dd\	.	.	.	.	.	.	.	.	.
8G\	.	8g\J	.	16b\	.	.	.	.	.	.	.	.	.
.	.	.	.	16ee\JJ	.	.	.	.	.	.	.	.	.
.	.	8qqf#/	.	8qqdd/	.	.	.	.	.	.	.	.	.
8A\	.	4e/	.	4cc#\	.	.	.	.	.	4a/	4ee\	.	.
8AA/J	.	.	.	.	.	.	.	.	.	.	.	.	.
!	!	!	!	!LO:LB:g=original	!	!	!	!	!	!	!LO:LB:g=original	!	!
=9	=9	=9	=9	=9	=9	=9	=9	=9	=9	=9	=9	=9	=9
!	!LO:DY:a:t=f	!	!	!	!	!	!	!	!	!	!	!	!
8D\L	f	16.f#/LL	.	16.dd\LL	.	4F#/	A-	4a\	A-	4dd\	4ff#\	1ryy	1ryy
.	.	32f#/K	.	32a\JJk	.	.	.	.	.	.	.	.	.
8D\	.	16.f#/	.	16.a\LL	.	.	.	.	.	.	.	.	.
.	.	32g/JJk	.	32b\JJk	.	.	.	.	.	.	.	.	.
8G\	.	16.g/LL	.	16.b\LL	.	8G/	.	8b\	.	8r	8r	.	.
.	.	32e/JJk	.	32cc#\JJk	.	.	.	.	.	.	.	.	.
8A\J	.	16.e/LL	.	16.cc#\LL	.	8E/	-gnus	8cc#\	-gnus	8a/	8ee\	.	.
.	.	32f#/JJk	.	32dd\JJk	.	.	.	.	.	.	.	.	.
8D\L	.	16.f#/LL	.	16.dd\LL	.	4F#/	De-	8dd\L	De-	4dd\	4ff#\	.	.
.	.	32f#/JJk	.	32a\K	.	.	.	.	.	.	.	.	.
8D\	.	16.f#/LL	.	16.a\	.	.	.	(8a\	.	.	.	.	.
.	.	32g/JJk	.	32b\JJk	.	.	.	.	.	.	.	.	.
8G\	.	16.g/LL	.	16.b\LL	.	8G/L	.	8b\	.	8r	8r	.	.
.	.	32e/JJk	.	32cc#\K	.	.	.	.	.	.	.	.	.
8A\J	.	16.e/LL	.	16.cc#\	.	8E/J	.	8cc#\J)	.	8a/	8ee\	.	.
.	.	32f#/JJk	.	32dd\JJk	.	.	.	.	.	.	.	.	.
!LO:LB:g=original	!	!	!	!	!	!	!	!	!	!LO:LB:g=original	!	!	!
=10	=10	=10	=10	=10	=10	=10	=10	=10	=10	=10	=10	=10	=10
8D\L	.	8f#/L	.	8dd\L	.	4F#/	-i	4dd\	-i	8dd\L	8ff#\L	1ryy	1ryy
8D\	.	8a/	.	16aa\L	.	.	.	.	.	8dd\	8ff#\	.	.
.	.	.	.	16gg\JJ	.	.	.	.	.	.	.	.	.
8D\	.	8a/	.	16ff#\LL	.	4A/	qui	4dd\	qui	8dd\	8ff#\	.	.
.	.	.	.	16ee\	.	.	.	.	.	.	.	.	.
8D\J	.	8a/J	.	16dd\	.	.	.	.	.	8dd\J	8ff#\J	.	.
.	.	.	.	16cc#\JJ	.	.	.	.	.	.	.	.	.
*	*	*	*	*	*	*	*	*2\right	*	*	*	*	*
!	!	!LO:LB:g=original	!	!	!	!	!	!	!	!	!	!	!
8D\L	.	16a\LL	.	16dd\LL	.	2A/	tol-	2ccn\	tol-	8dd\L	8ff#\L	.	.
.	.	(16ccn\	.	16aa\	.	.	.	.	.	.	.	.	.
8D\	.	16a\	.	16ccn\	.	.	.	.	.	8dd\	8ff#\	.	.
.	.	16g\JJ)	.	16b\JJ	.	.	.	.	.	.	.	.	.
8D\	.	(16a/LL	.	16cc\LL	.	.	.	.	.	8dd\	8ff#\	.	.
.	.	16cc\)	.	16aa\	.	.	.	.	.	.	.	.	.
8D\J	.	(16a/	.	16cc\	.	.	.	.	.	8dd\J	8ff#\J	.	.
.	.	16f#/JJ)	.	16a\JJ	.	.	.	.	.	.	.	.	.
*Xtremolo	*	*	*	*	*	*	*	*	*	*	*	*	*
=11	=11	=11	=11	=11	=11	=11	=11	=11	=11	=11	=11	=11	=11
!	!	!	!	!LO:TX:t=P:problem:mixed beam	!	!	!	!	!	!	!	!	!
8G\L	.	8g/L	.	8b/L	.	4G/	-lis	4b\	-lis	8dd\L	8gg\L	1ryy	1ryy
8E\	.	8b\	.	16bb\L	.	.	.	.	.	8ee\	8gg#X\	.	.
.	.	.	.	16aa\JJ	.	.	.	.	.	.	.	.	.
8E\	.	8b\	.	16gg#X\LL	.	4B\	.	4ee\	.	8ee\	8gg#\	.	.
.	.	.	.	16ff#\	.	.	.	.	.	.	.	.	.
8E\J	.	8b\J	.	16ee\	.	.	.	.	.	8ee\J	8gg#\J	.	.
!	!	!	!	!LO:TX:t=P:problem:♯above	!	!	!	!	!	!	!	!	!
.	.	.	.	16dd#X\JJ	.	.	.	.	.	.	.	.	.
*	*	*	*	*	*	*2\right	*	*	*	*	*	*	*
8E\L	.	16b\LL	.	16ee\LL	.	2B\	qui	2dd\	qui	8ee\L	8gg#\L	.	.
.	.	16dd\	.	16bb\	.	.	.	.	.	.	.	.	.
8E\	.	16b\	.	16ddn\	.	.	.	.	.	8ee\	8gg#\	.	.
.	.	16a\JJ	.	16cc#\JJ	.	.	.	.	.	.	.	.	.
8E\	.	16b\LL	.	16dd\LL	.	.	.	.	.	8ee\	8gg#\	.	.
.	.	16dd\	.	16bb\	.	.	.	.	.	.	.	.	.
8E\J	.	16b\	.	16dd\	.	.	.	.	.	8ee\J	8gg#\J	.	.
.	.	16g#X\JJ	.	16b\JJ	.	.	.	.	.	.	.	.	.
=12	=12	=12	=12	=12	=12	=12	=12	=12	=12	=12	=12	=12	=12
8AA/L	.	8a\L	.	8cc#\L	.	8A\	tol-	8cc#\	tol-	8ee\L	8aa\L	1ryy	1ryy
8AA/	.	(16cc#\L	.	16ee\L	.	8c#\	-lis	8ee\	-lis	8a\	8ee\	.	.
.	.	16dd\JJ)	.	16ff#\JJ	.	.	.	.	.	.	.	.	.
!	!	!LO:TX:t=P:problem:klamra łukowa, kropka zamiast numeru	!	!LO:TX:t=P:problem:klamra łukowa, kropka zamiast numeru	!	!	!	!	!	!	!	!	!
8AA/	.	24ee\LL	.	24ggn\LL	.	4c#\	pec-	4ee\	pec-	8a\	8ee\	.	.
.	.	24dd\	.	24ff#\	.	.	.	.	.	.	.	.	.
.	.	24cc#\JJ	.	24ee\JJ	.	.	.	.	.	.	.	.	.
!	!	!LO:TX:t=P:problem:klamra łukowa, kropka zamiast numeru	!	!	!	!	!	!	!	!	!	!	!
8AA/J	.	24ggn\LL	.	24bb\LL	.	.	.	.	.	8a\J	8ee\J	.	.
.	.	24ff#\	.	24aa\	.	.	.	.	.	.	.	.	.
.	.	24ee\JJ	.	24gg\JJ	.	.	.	.	.	.	.	.	.
!	!	!LO:TX:t=P:problem:mixed beam	!	!LO:TX:t=P:problem:mixed beam	!	!	!	!	!	!	!	!	!
8D\L	.	8dd\L	.	8ff#\L	.	4d\	-ca	4ff#\	-ca-	8dd\L	8ff#\L	.	.
8AA/	.	16c#/L	.	16e/L	.	.	.	.	.	8a\	8ee\	.	.
.	.	16d/JJ	.	16f#/JJ	.	.	.	.	.	.	.	.	.
!	!	!LO:TX:t=P:problem:klamra łukowa, kropka zamiast numeru	!	!LO:TX:t=P:problem:klamra łukowa, kropka zamiast numeru	!	!	!	!	!	!	!	!	!
8AA/	.	24e/LL	.	24g/LL	.	4c#\	ta	4ee\	-ta	8a\	8ee\	.	.
.	.	24d/	.	24f#/	.	.	.	.	.	.	.	.	.
.	.	24c#/JJ	.	24e/JJ	.	.	.	.	.	.	.	.	.
!	!	!LO:TX:t=P:problem:klamra łukowa, kropka zamiast numeru	!	!LO:TX:t=P:problem:klamra łukowa, kropka zamiast numeru	!	!	!	!	!	!	!	!	!
8AA/J	.	24g/LL	.	24b\LL	.	.	.	.	.	8a\J	8ee\J	.	.
.	.	24f#/	.	24a\	.	.	.	.	.	.	.	.	.
.	.	24e/JJ	.	24g\JJ	.	.	.	.	.	.	.	.	.
!	!	!	!	!LO:LB:g=original	!	!	!	!	!	!	!	!	!
=13	=13	=13	=13	=13	=13	=13	=13	=13	=13	=13	=13	=13	=13
!	!	!LO:TX:t=P:problem:mixed beam	!	!LO:TX:t=P:problem:mixed beam	!	!LO:TX:t=P:problem:niejednoznaczne podłożenie tekstu	!	!	!	!	!	!	!
4D\	.	8d/L	.	8f#/L	.	4d\	mundi-	8ff#\	mun-	4dd\	4ff#\	1ryy	1ryy
.	.	16dd\L	.	16dd\L	.	.	.	8ff#\	-di	.	.	.	.
.	.	16ee\JJ	.	16ee\JJ	.	.	.	.	.	.	.	.	.
8D\L	.	16ff#\LL	.	16ff#\LL	.	8A/	mi-	8ff#\	mi-	8dd\L	8ff#\L	.	.
.	.	16gg#X\	.	16gg#X\	.	.	.	.	.	.	.	.	.
8BB\J	.	16aa\	.	16aa\	.	8A/	-se-	8ee\	-se-	8dd\J	8ff#\J	.	.
.	.	16ff#\JJ	.	16ff#\JJ	.	.	.	.	.	.	.	.	.
8C#/L	.	(16ee\LL	.	16ee\LL	.	8c#\	-re-	8ee\	-re-	4a/	4ee\	.	.
.	.	16aa\)	.	16aa\	.	.	.	.	.	.	.	.	.
8AA/	.	(16cc#\	.	16cc#\	.	8c#\	-re	8ee\	-re	.	.	.	.
.	.	16ee\JJ)	.	16ee\JJ	.	.	.	.	.	.	.	.	.
8BB/	.	8dd\L	.	8dd\L	.	4B\	no-	4dd\	no-	8ee\L	8ee\L	.	.
8E\J	.	8dd\J	.	8dd\J	.	.	.	.	.	8ee\J	8ee\J	.	.
=14	=14	=14	=14	=14	=14	=14	=14	=14	=14	=14	=14	=14	=14
4AA/	.	8cc#\L	.	8cc#\L	.	4A\	-bis	4cc#\	-bis	4a/	4ee\	1ryy	1ryy
.	.	8dd\J	.	8bb\J	.	.	.	.	.	.	.	.	.
8E\L	.	16dd\LL	.	16bb\LL	.	8B\	mi-	8dd\	mi-	8ee\L	8ee\L	.	.
.	.	16b\	.	16dd\	.	.	.	.	.	.	.	.	.
8E\J	.	16b\	.	16dd\	.	8B\	-se-	8dd\	-se-	8ee\J	8ee\J	.	.
.	.	16b\JJ	.	16dd\JJ	.	.	.	.	.	.	.	.	.
!	!	!	!	!	!	!	!	!LO:LB:g=original	!	!	!	!	!
4AA/	.	8a\L	.	8cc#\L	.	8A\	-re-	8cc#\	-re-	4a/	4ee\	.	.
.	.	8dd\J	.	8bb\J	.	8B\	-re	8dd\	-re	.	.	.	.
8E\L	.	16dd\LL	.	16bb\LL	.	4B\	no-	4dd\	no-	8ee\L	8ee\L	.	.
.	.	16b\	.	16dd\	.	.	.	.	.	.	.	.	.
8E\J	.	16b\	.	16dd\	.	.	.	.	.	8ee\J	8ee\J	.	.
.	.	16b\JJ	.	16dd\JJ	.	.	.	.	.	.	.	.	.
!	!	!	!	!	!	!LO:LB:g=original	!	!	!	!	!	!	!
=15	=15	=15	=15	=15	=15	=15	=15	=15	=15	=15	=15	=15	=15
!	!	!	!	!	!	!LO:SIC:s=:v:4A	!	!	!	!	!	!	!
8AA/L	.	16.a/LL	.	16.cc#\LL	.	4B\	-bis	4cc#\	-bis	4a/	4ee\	1ryy	1ryy
.	.	32e/K	.	32a\K	.	.	.	.	.	.	.	.	.
8AA/	.	16.a/	.	16.cc#\	.	.	.	.	.	.	.	.	.
.	.	32cc#\JJk	.	32ee\JJk	.	.	.	.	.	.	.	.	.
8AA/	.	16.dd\LL	.	16.ff#\LL	.	8B\	mi-	8dd\	mi-	4r	4r	.	.
.	.	32ff#\K	.	32aa\K	.	.	.	.	.	.	.	.	.
8D\J	.	16.g#X\	.	16.b\	.	8B\	-se-	8dd\	-se-	.	.	.	.
.	.	32b\JJk	.	32dd\JJk	.	.	.	.	.	.	.	.	.
!	!	!LO:LB:g=original	!	!	!	!	!	!	!	!	!	!	!
8E\L	.	8a/L	.	16cc#\LL	.	8A\	-re-	8cc#\	-re-	4ee\	4ee\	.	.
.	.	.	.	16a/	.	.	.	.	.	.	.	.	.
8E\	.	8d/J	.	16f#/	.	8d\	-re	8b\	-re	.	.	.	.
.	.	.	.	16b\JJ	.	.	.	.	.	.	.	.	.
.	.	8qqc#/	.	8qqa/	.	8qqc#/	.	8qqa/	.	.	.	.	.
8E\	.	4B/	.	4g#X/	.	4B\	no-	4g#X/	no-	4ee\	4ee\	.	.
8E\J	.	.	.	.	.	.	.	.	.	.	.	.	.
=16	=16	=16	=16	=16	=16	=16	=16	=16	=16	=16	=16	=16	=16
*tremolo	*	*	*	*	*	*	*	*	*	*	*	*	*
!	!LO:DY:a:t=p	!LO:TX:t=P:problem:mixed beam	!	!LO:TX:t=P:problem:mixed beam	!	!	!	!	!	!	!	!	!
8AA/L	p	16c#/LL	.	16a/LL	.	4c#\	-bis	4a\	-bis	8a/	8ee\	1ryy	1ryy
.	.	(16cc#\	.	(16aa\	.	.	.	.	.	.	.	.	.
8AA/	.	16b\	.	16gg#X\	.	.	.	.	.	8r	8r	.	.
.	.	16cc#\JJ)	.	16aa\JJ)	.	.	.	.	.	.	.	.	.
8AA/	.	16r	.	16r	.	4r	.	4r	.	8a/	8ee\	.	.
.	.	(16cc#\LL	.	(16aa\LL	.	.	.	.	.	.	.	.	.
8AA/J	.	16b\	.	16gg#X\	.	.	.	.	.	8r	8r	.	.
.	.	16cc#\JJ)	.	16aa\JJ)	.	.	.	.	.	.	.	.	.
*Xtremolo	*	*	*	*	*	*	*	*	*	*	*	*	*
8D\L	.	16r	.	16r	.	2r	.	2r	.	4dd\	4ff#\	.	.
.	.	16dd\LL	.	16ff#\LL	.	.	.	.	.	.	.	.	.
8D\	.	(16dd\	.	16ff#\	.	.	.	.	.	.	.	.	.
.	.	16cc#\JJ)	.	16ee\JJ	.	.	.	.	.	.	.	.	.
8E\	.	(16cc#\LL	.	16ee\LL	.	.	.	.	.	4ee\	4ee\	.	.
.	.	16b\)	.	16dd\	.	.	.	.	.	.	.	.	.
8E\J	.	(16b\	.	16dd\	.	.	.	.	.	.	.	.	.
.	.	16g#X\JJ)	.	16b\JJ	.	.	.	.	.	.	.	.	.
!	!	!	!	!	!	!	!	!	!	!	!LO:LB:g=original	!	!
=17	=17	=17	=17	=17	=17	=17	=17	=17	=17	=17	=17	=17	=17
!LO:TX:t=P:problem:brak jednego taktu	!	!	!LO:DY:a:t=p&colon;	!	!	!	!	!	!	!	!	!	!
1ryy	.	16a\LL	p	16cc#\LL	.	0r	.	0r	.	4a/	4ee\	1ryy	1ryy
.	.	16cc#\	.	(16aa\	.	.	.	.	.	.	.	.	.
.	.	16b\	.	16gg#X\	.	.	.	.	.	.	.	.	.
.	.	16cc#\JJ	.	16aa\JJ)	.	.	.	.	.	.	.	.	.
.	.	16r	.	16r	.	.	.	.	.	4r	4r	.	.
.	.	(16cc#\LL	.	(16aa\LL	.	.	.	.	.	.	.	.	.
.	.	16b\	.	16gg#\	.	.	.	.	.	.	.	.	.
.	.	16cc#\JJ)	.	16aa\JJ)	.	.	.	.	.	.	.	.	.
!	!	!	!	!LO:LB:g=original	!	!	!	!	!	!	!	!	!
.	.	16r	.	16r	.	.	.	.	.	2r	2r	.	.
.	.	16f#/LL	.	(16dd\LL	.	.	.	.	.	.	.	.	.
.	.	(16f#/	.	16dd\	.	.	.	.	.	.	.	.	.
.	.	16e/JJ)	.	16cc#\JJ)	.	.	.	.	.	.	.	.	.
.	.	(16e/LL	.	(16cc#\LL	.	.	.	.	.	.	.	.	.
.	.	16d/)	.	16b\	.	.	.	.	.	.	.	.	.
.	.	(16d/	.	16b\)	.	.	.	.	.	.	.	.	.
.	.	16B/JJ)	.	16g#X\JJ	.	.	.	.	.	.	.	.	.
=18	=18	=18	=18	=18	=18	=18	=18	=18	=18	=18	=18	=18	=18
!	!LO:DY:a:t=f	!LO:TX:t=P:problem:f=for:global	!LO:DY:a	!LO:TX:t=P:problem:f=f:	!LO:DY:a	!	!	!	!	!	!	!	!
8AA/L	f	16.c#/LL	f	16.a\LL	f	.	.	.	.	4a/	4ee\	1ryy	1ryy
.	.	32e/K	.	32a\JJk	.	.	.	.	.	.	.	.	.
8AA/	.	16.a/	.	16.cc#\LL	.	.	.	.	.	.	.	.	.
.	.	32cc#\JJk	.	32ee\JJk	.	.	.	.	.	.	.	.	.
8AA/	.	16.dd\LL	.	16.ff#\LL	.	.	.	.	.	4r	4r	.	.
.	.	32ff#\JJk	.	32aa\JJk	.	.	.	.	.	.	.	.	.
8D\J	.	16.g#X/LL	.	16.b\LL	.	.	.	.	.	.	.	.	.
.	.	32b\JJk	.	32dd\JJk	.	.	.	.	.	.	.	.	.
!	!	!LO:N:vis=8.	!	!	!	!	!	!	!	!	!	!	!
8E\L	.	8a/L	.	16cc#\LL	.	.	.	.	.	4ee\	4ee\	.	.
.	.	.	.	16a/	.	.	.	.	.	.	.	.	.
8E\	.	8d/J	.	16f#/	.	.	.	.	.	.	.	.	.
.	.	.	.	16b\JJ	.	.	.	.	.	.	.	.	.
.	.	8qqc#/	.	8qqa/	.	.	.	.	.	.	.	.	.
8E\	.	4B/	.	4g#X/	.	.	.	.	.	4ee\	4ee\	.	.
8E\J	.	.	.	.	.	.	.	.	.	.	.	.	.
=19	=19	=19	=19	=19	=19	=19	=19	=19	=19	=19	=19	=19	=19
8AA/L	.	16.a\LL	.	16.a\LL	.	8c#\	A-	8ee\	A-	4a/	4ee\	1ryy	1ryy
.	.	32cc#\K	.	32ee\K	.	.	.	.	.	.	.	.	.
8AA/	.	16.cc#\	.	16.ee\	.	8c#\	-gnus	8ee\	-gnus	.	.	.	.
.	.	32dd\JJk	.	32ff#\JJk	.	.	.	.	.	.	.	.	.
8D\	.	16.dd\LL	.	16.ff#\LL	.	8d\L	De-	8ff#\L	De-	8r	8r	.	.
.	.	32b\K	.	32gg#X\K	.	.	.	.	.	.	.	.	.
8E\J	.	16.b\	.	16.gg#\	.	16c#\L	.	16ee\L	.	8ee\	8ee\	.	.
.	.	.	.	.	.	16B\JJ	.	16dd\JJ	.	.	.	.	.
.	.	32cc#\JJk	.	32aa\JJk	.	.	.	.	.	.	.	.	.
8AA/L	.	16.cc#\LL	.	16.aa\LL	.	8A\	-i	8cc#\	-i	4a/	4ee\	.	.
.	.	32cc#\K	.	32ee\JJk	.	.	.	.	.	.	.	.	.
8AA/	.	16.cc#\	.	16.ee\LL	.	8c#\	qui	8ee\	qui	.	.	.	.
.	.	32dd\JJk	.	32ff#\JJk	.	.	.	.	.	.	.	.	.
8D\	.	16.dd\LL	.	16.ff#\LL	.	8d\L	tol-	8ff#\L	tol-	8r	8r	.	.
.	.	32b\K	.	32gg#X\K	.	.	.	.	.	.	.	.	.
8E\J	.	16.b\	.	16.gg#\	.	16c#\L	.	16ee\L	.	8ee\	8ee\	.	.
.	.	.	.	.	.	16B\JJ	.	16dd\JJ	.	.	.	.	.
.	.	32cc#\JJk	.	32aa\JJk	.	.	.	.	.	.	.	.	.
!	!	!LO:LB:g=original	!	!	!	!	!	!	!	!LO:LB:g=original	!	!	!
=20	=20	=20	=20	=20	=20	=20	=20	=20	=20	=20	=20	=20	=20
8AA/L	.	16.cc#\LL	.	16.aa\LL	.	8A\L	.	8cc#\L	.	8a\L	8ee\L	1ryy	1ryy
.	.	32cc#\K	.	32ee\K	.	.	.	.	.	.	.	.	.
8D\	.	16.dd\	.	16.ff#\	.	8d\J	.	8ff#\J	.	8dd\	8ff#\	.	.
.	.	32cc#\JJk	.	32aa\JJk	.	.	.	.	.	.	.	.	.
.	.	8qqcc#/	.	8qqee/	.	8qqc#/	.	.	.	.	.	.	.
8E\	.	4b\	.	4dd\	.	4B\	.	4dd\	.	8ee\	8ee\	.	.
8E\J	.	.	.	.	.	.	.	.	.	8ee\J	8ee\J	.	.
!LO:LB:g=original	!	!	!	!	!	!	!	!	!	!	!	!	!
4AA/	.	16.a/LL	.	16.cc#\LL	.	8A\	-lis	8cc#\	-lis	4a/	4ee\	.	.
.	.	32e/JJk	.	32a\JJk	.	.	.	.	.	.	.	.	.
.	.	16.a/LL	.	16.cc#\LL	.	8G#X/	pec-	8ee\	pec-	.	.	.	.
.	.	32g#X/JJk	.	32ee\JJk	.	.	.	.	.	.	.	.	.
!	!	!LO:TX:t=P:problem:mixed beam	!	!	!	!	!	!	!	!	!	!	!
8BB/L	.	16.f#/LL	.	16.dd#X\LL	.	4F#/	-ca-	4dd#X\	-ca-	4r	4r	.	.
.	.	32ff#\JJk	.	32aa\K	.	.	.	.	.	.	.	.	.
8BB/J	.	16.a/LL	.	16.ff#\	.	.	.	.	.	.	.	.	.
.	.	32f#/JJk	.	32dd#X\JJk	.	.	.	.	.	.	.	.	.
!	!	!	!	!LO:LB:g=original	!	!	!	!LO:LB:g=original	!	!	!	!	!
=21	=21	=21	=21	=21	=21	=21	=21	=21	=21	=21	=21	=21	=21
!	!	!LO:SIC:s=:v:16.g#	!	!	!	!	!	!	!	!	!	!	!
4E\	.	16.g/LL	.	16.ee\LL	.	4G#X/	-ta	4ee\	-ta	4ee\	4ee\	1ryy	1ryy
!	!	!LO:SIC:s=:v:32g#	!	!	!	!	!	!	!	!	!	!	!
.	.	32g/JJk	.	32b\JJk	.	.	.	.	.	.	.	.	.
.	.	16.a/LL	.	16.cc#\LL	.	.	.	.	.	.	.	.	.
!	!	!LO:SIC:s=:v:32g#	!	!	!	!	!	!	!	!	!	!	!
.	.	32g/JJk	.	32ee\JJk	.	.	.	.	.	.	.	.	.
!	!	!LO:TX:t=P:problem:mixed beam	!	!	!	!	!	!	!	!	!	!	!
8BB/L	.	16.f#/LL	.	16.dd#X\LL	.	4F#/	mun-	4dd#X\	mun-	4r	4r	.	.
.	.	32ff#\JJk	.	32aa\K	.	.	.	.	.	.	.	.	.
8BB/J	.	16.a/LL	.	16.ff#\	.	.	.	.	.	.	.	.	.
.	.	32f#/JJk	.	32dd#X\JJk	.	.	.	.	.	.	.	.	.
*tremolo	*	*	*	*	*	*	*	*	*	*	*	*	*
8E\L	.	16.g#X/LL	.	16.ee\LL	.	4G#/	-di	4ee\	-di	4ee\	4ee\	.	.
.	.	32a/JJk	.	32ddn\JJk	.	.	.	.	.	.	.	.	.
8E\	.	16.gg#X\LL	.	16.bb\LL	.	.	.	.	.	.	.	.	.
.	.	32ff#\JJk	.	32aa\JJk	.	.	.	.	.	.	.	.	.
8E\	.	16.ee\LL	.	16.gg#X\LL	.	8B\	mi-	8ddn\	mi-	4r	4r	.	.
.	.	32dd\K	.	32ff#\K	.	.	.	.	.	.	.	.	.
8E\J	.	16.cc#\	.	16.ee\	.	8B\	-se-	8dd\	-se-	.	.	.	.
.	.	32b\JJk	.	32dd\JJk	.	.	.	.	.	.	.	.	.
!	!	!	!	!	!	!LO:LB:g=original	!	!	!	!	!	!	!
=22	=22	=22	=22	=22	=22	=22	=22	=22	=22	=22	=22	=22	=22
8A\L	.	16.a/LL	.	16.cc#\LL	.	8A/	-re-	8cc#\	-re-	4a/	4ee\	1ryy	1ryy
.	.	32e/JJk	.	32a\JJk	.	.	.	.	.	.	.	.	.
8A\	.	16.ff#\LL	.	16.aa\LL	.	8A/	-re	8cc#\	-re	.	.	.	.
.	.	32ee\JJk	.	32gg#X\JJk	.	.	.	.	.	.	.	.	.
8A\	.	16.dd\LL	.	16.ff#\LL	.	8A/	mi-	8cc#\	mi-	4r	4r	.	.
.	.	32cc#\JJk	.	32ee\K	.	.	.	.	.	.	.	.	.
8A\J	.	16.b\LL	.	16.dd\	.	8A/	-se-	8cc#\	-se-	.	.	.	.
.	.	32a/JJk	.	32cc#\JJk	.	.	.	.	.	.	.	.	.
!	!	!	!	!	!	!LO:SIC:o:s=:v:wymazane dwa dźwięki	!	!	!	!	!	!	!
8E\L	.	8a/L	.	8cc#\L	.	8A/	-re-	8cc#\	-re-	8ee\L	8ee\L	.	.
8E\	.	8g#X/J	.	8b\J	.	8G#X/	-re	8b\	-re	8ee\	8ee\	.	.
8E\	.	8b\L	.	8dd\L	.	4B\	no-	4dd\	no-	8ee\	8ee\	.	.
8E\J	.	16a\L	.	16cc#\L	.	.	.	.	.	8ee\J	8ee\J	.	.
.	.	16g#X\JJ	.	16b\JJ	.	.	.	.	.	.	.	.	.
=23	=23	=23	=23	=23	=23	=23	=23	=23	=23	=23	=23	=23	=23
8AA/L	.	4a/	.	4cc#\	.	4A\	-bis	4cc#\	-bis	4a/	4ee\	1ryy	1ryy
8AA/	.	.	.	.	.	.	.	.	.	.	.	.	.
8AA/	.	8ee\L	.	8ggn\L	.	8e\	mi-	8gg\	mi-	8a/L	8ee\L	.	.
8AA/J	.	(16dd\L	.	16ff#\L	.	8e\	-se-	8gg\	-se-	8a/J	8ee\J	.	.
.	.	16cc#\JJ)	.	16ee\JJ	.	.	.	.	.	.	.	.	.
*Xtremolo	*	*	*	*	*	*	*	*	*	*	*	*	*
8D\L	.	16.dd\LL	.	16.ff#\LL	.	4.d\	-re-	4.ff#\	-re-	8dd\L	8ff#\L	.	.
.	.	32a\JJk	.	32dd\JJk	.	.	.	.	.	.	.	.	.
8D\	.	16.dd\LL	.	16.ff#\LL	.	.	.	.	.	8dd\	8ff#\	.	.
.	.	32ff#\JJk	.	32aa\JJk	.	.	.	.	.	.	.	.	.
8D\	.	16.gg\LL	.	16.bb\LL	.	.	.	.	.	8dd\	8ff#\	.	.
.	.	32bb\JJk	.	32ddd\JJk	.	.	.	.	.	.	.	.	.
8G\J	.	16.cc#\LL	.	16.ee\LL	.	8e\	-re	8gg\	-re	8ee\J	8gg\J	.	.
.	.	32ee\JJk	.	32gg\JJk	.	.	.	.	.	.	.	.	.
!	!	!LO:LB:g=original	!	!	!	!	!	!	!	!	!	!	!
=24	=24	=24	=24	=24	=24	=24	=24	=24	=24	=24	=24	=24	=24
!LO:TX:t=P:problem:mixed beam	!	!	!	!	!	!	!	!	!	!	!	!	!
8A\L	.	4dd\	.	8ff#\L	.	4d\	no-	4ff#\	no-	4dd\	4ff#\	1ryy	1ryy
8A\	.	.	.	16ee\L	.	.	.	.	.	.	.	.	.
.	.	.	.	16dd\JJ	.	.	.	.	.	.	.	.	.
8AA/	.	4cc#\	.	4ee\T	.	4c#\	.	4ee\	.	4a/	4ee\	.	.
8AA/J	.	.	.	.	.	.	.	.	.	.	.	.	.
!	!	!LO:TX:t=P:problem:mixed beam	!	!LO:TX:a:t=|:problem	!	!	!	!	!	!	!	!	!
*tremolo	*	*	*	*	*	*	*	*	*	*	*	*	*
8D\L	.	16dd\LL	.	16dd\LL	.	4d\	-bis	4dd\	-bis	8dd\	8ff#\	.	.
.	.	(16f#/	.	(16dd\	.	.	.	.	.	.	.	.	.
8D\	.	16e/	.	16cc#\	.	.	.	.	.	8r	8r	.	.
.	.	16f#/JJ)	.	16dd\JJ)	.	.	.	.	.	.	.	.	.
8D\	.	16r	.	16r	.	8F#/	mi-	8dd\	mi-	8dd\	8ff#\	.	.
.	.	16f#/LL	.	(16dd\LL	.	.	.	.	.	.	.	.	.
8D\J	.	16e/	.	16cc#\	.	8F#/	-se-	8dd\	-se-	8r	8r	.	.
.	.	16f#/JJ	.	16dd\JJ)	.	.	.	.	.	.	.	.	.
*Xtremolo	*	*	*	*	*	*	*	*	*	*	*	*	*
!	!	!	!	!	!	!	!	!	!	!	!LO:LB:g=original	!	!
=25	=25	=25	=25	=25	=25	=25	=25	=25	=25	=25	=25	=25	=25
!	!	!	!	!	!	!	!	!	!	!	!LO:TX:t=P:problem:brak jednego taktu	!	!
8G\L	.	16r	.	16r	.	4B\	-re-	4gg\	-re-	8a/L	1ryy	1ryy	1ryy
.	.	16gg\LL	.	16bb\LL	.	.	.	.	.	.	.	.	.
8G\	.	(16gg\	.	16bb\	.	.	.	.	.	8a/	.	.	.
.	.	16ff#\JJ)	.	16aa\JJ	.	.	.	.	.	.	.	.	.
8A\	.	(16ff#\LL	.	16aa\LL	.	16A\LL	.	16ff#\LL	.	8a/	.	.	.
.	.	16ee\)	.	16gg\	.	16G\JJ	.	16ee\JJ	.	.	.	.	.
8A\J	.	(16ee\	.	16gg\	.	16G\LL	.	16ee\LL	.	8a/J	.	.	.
!	!	!LO:SIC:s=:v:16cc#	!	!	!	!	!	!	!	!	!	!	!
.	.	16dd\JJ)	.	16ee\JJ	.	16F#\JJ	.	16cc#\JJ	.	.	.	.	.
!	!	!LO:TX:a:t=|:problem	!	!	!	!	!	!	!	!	!	!	!
!	!	!LO:TX:t=P:problem:mixed beam	!	!	!	!	!	!	!	!	!	!	!
*tremolo	*	*	*	*	*	*	*	*	*	*	*	*	*
8D\L	.	16dd\LL	.	16ff#\LL	.	4F#/	-re	4dd\	-re	8dd\	.	.	.
.	.	(16f#/	.	16dd\	.	.	.	.	.	.	.	.	.
8D\	.	16e/	.	16cc#\	.	.	.	.	.	8r	.	.	.
.	.	16f#/JJ)	.	16dd\JJ	.	.	.	.	.	.	.	.	.
8D\	.	16r	.	16r	.	8F#/	mi-	8dd\	mi-	8dd\	.	.	.
.	.	(16f#/LL	.	(16dd\LL	.	.	.	.	.	.	.	.	.
8D\J	.	16e/	.	16cc#\	.	8F#/	-se-	8dd\	-se-	8r	.	.	.
.	.	16f#/JJ)	.	16dd\JJ)	.	.	.	.	.	.	.	.	.
*Xtremolo	*	*	*	*	*	*	*	*	*	*	*	*	*
!	!	!	!	!LO:LB:g=original	!	!	!	!LO:LB:g=original	!	!	!	!	!
=26	=26	=26	=26	=26	=26	=26	=26	=26	=26	=26	=26	=26	=26
!	!	!	!	!	!	!	!	!LO:SIC:s=:v:-re-	!	!LO:SIC:s=:v:t:prawdopodobnie	!	!	!
8GG/L	.	16r	.	16r	.	4g\	-re-	4b\	-r-	8a/L	8ee\L	1ryy	1ryy
.	.	16g/LL	.	16b\LL	.	.	.	.	.	.	.	.	.
!	!	!	!	!	!	!	!	!	!	!LO:SIC:s=:v:t:prawdopodobnie	!	!	!
8GG/	.	(16g/	.	16b\	.	.	.	.	.	8a/	8ee\	.	.
.	.	16f#/JJ)	.	16a\JJ	.	.	.	.	.	.	.	.	.
8AA/	.	(16f#/LL	.	(16a/LL	.	(16f#\LL	.	16a\LL	.	8a/	8ee\	.	.
.	.	16e/)	.	16g/)	.	16e\JJ)	.	16g\JJ	.	.	.	.	.
8AA/J	.	(16e/	.	(16g/	.	(16e\LL	.	16g\LL	.	8a/J	8ee\J	.	.
.	.	16c#/JJ)	.	16e/JJ)	.	16d\JJ)	.	16e/JJ	.	.	.	.	.
!	!	!	!	!	!	!	!	!LO:SIC:s=:v:-re	!	!	!	!	!
*tremolo	*	*	*	*	*	*	*	*	*	*	*	*	*
8D\L	.	8d/L	.	16.f#/LL	.	4d\	-re	4f#/	-r	8dd\L	8ff#\L	.	.
.	.	.	.	32d/K	.	.	.	.	.	.	.	.	.
8D\	.	8a/	.	16.f#/	.	.	.	.	.	8dd\	8dd\	.	.
.	.	.	.	32a/JJk	.	.	.	.	.	.	.	.	.
8D\	.	8a/	.	16.dd\LL	.	8d\	mi-	8a\	mi-	8dd\	8dd\	.	.
.	.	.	.	32ff#\K	.	.	.	.	.	.	.	.	.
8D\J	.	8a/J	.	16.a\	.	8d\	-se-	8a\	-se-	8dd\J	8dd\J	.	.
.	.	.	.	32ccn\JJk	.	.	.	.	.	.	.	.	.
!	!	!	!	!	!	!LO:LB:g=original	!	!	!	!	!	!	!
=27	=27	=27	=27	=27	=27	=27	=27	=27	=27	=27	=27	=27	=27
8G\L	.	8b\L	.	16.b\LL	.	8d\	-re-	8b\	-re-	8dd\L	8dd\L	1ryy	1ryy
.	.	.	.	32e/K	.	.	.	.	.	.	.	.	.
8G\	.	8b\	.	16.gn/	.	8d\	-re	8b\	-re	8ee\	8ee\	.	.
.	.	.	.	32b\JJk	.	.	.	.	.	.	.	.	.
8G\	.	8b\	.	16.ee\LL	.	8e\	mi-	8b\	mi-	8ee\	8ee\	.	.
.	.	.	.	32gg\JJk	.	.	.	.	.	.	.	.	.
8G\J	.	8b\J	.	16.b\LL	.	8e\	-se-	8b\	-se	8ee\J	8ee\J	.	.
.	.	.	.	32dd\JJk	.	.	.	.	.	.	.	.	.
8A\L	.	16.cc#\LL	.	16.cc#\LL	.	8e\	-re-	8cc#\	.	8ee\L	8ee\L	.	.
.	.	32e/JJk	.	32a\JJk	.	.	.	.	.	.	.	.	.
8A\	.	16.a/LL	.	16.cc#\LL	.	8e\	-re	8cc#\	.	8a\	8ee\	.	.
.	.	32cc#\JJk	.	32ee\JJk	.	.	.	.	.	.	.	.	.
8A\	.	16.ee\LL	.	16.gg\LL	.	8c#\	mi-	8ee\	mi-	8a\	8ee\	.	.
.	.	32gg\JJk	.	32bb\JJk	.	.	.	.	.	.	.	.	.
8A\J	.	16.cc#\LL	.	16.ee\LL	.	8c#\	-se-	8ee\	-se-	8a\J	8ee\J	.	.
.	.	32ee\JJk	.	32gg\JJk	.	.	.	.	.	.	.	.	.
*Xtremolo	*	*	*	*	*	*	*	*	*	*	*	*	*
=28	=28	=28	=28	=28	=28	=28	=28	=28	=28	=28	=28	=28	=28
!LO:TX:t=P:problem:mixed beam	!	!	!	!	!	!	!	!	!	!	!	!	!
8D\L	.	16ff#\LL	.	16ff#\LL	.	8A/	-re-	8ff#\	-re-	8dd\L	8ff#\L	1ryy	1ryy
.	.	16dd\	.	16dd\	.	.	.	.	.	.	.	.	.
8G\	.	16b\	.	16b\	.	8G/	-re	8ee\	-re	8dd\	8ff#\	.	.
.	.	16ee\JJ	.	16ee\JJ	.	.	.	.	.	.	.	.	.
.	.	8qqdd/	.	8qqdd/	.	8qqF#/	.	8qqdd/	.	.	.	.	.
8A\	.	4cc#\	.	4cc#\	.	4E/	no-	4cc#\	no-	8a\	8ee\	.	.
8AA/J	.	.	.	.	.	.	.	.	.	8a\J	8ee\J	.	.
8D\L	.	8dd\L	.	8dd\L	.	4F#/	-bis	4dd\	-bis	4dd\	4ff#\	.	.
8G#X\	.	8b\	.	8ffn\	.	.	.	.	.	.	.	.	.
8G#\	.	8b\	.	8ff\	.	8d\	mi-	8ffn\	mi-	4r	4r	.	.
8G#\J	.	8b\J	.	8ff\J	.	8d\	-se-	8ff\	-se-	.	.	.	.
!	!	!	!	!	!	!	!	!	!	!LO:LB:g=original	!	!	!
=29	=29	=29	=29	=29	=29	=29	=29	=29	=29	=29	=29	=29	=29
8A\L	.	8cc#\L	.	(16ee\LL	.	8G/	-re-	8ee\	-re-	8a\L	8ee\L	1ryy	1ryy
.	.	.	.	16cc#\)	.	.	.	.	.	.	.	.	.
16F#\L	.	16dd\L	.	(16dd\	.	8F#/	-re	8dd\	-re	8dd\	8ff#\	.	.
16Gn\JJ	.	16b\JJ	.	16b\JJ)	.	.	.	.	.	.	.	.	.
!LO:TX:t=P:problem:mixed beam	!	!	!	!	!	!	!	!	!	!	!	!	!
8A\L	.	8a\L	.	8a\L	.	4E/	no-	4cc#\t	no-	8a\	8ee\	.	.
8AA/J	.	8cc#\J	.	8cc#\J	.	.	.	.	.	8a\J	8ee\J	.	.
!	!	!LO:LB:g=original	!	!	!	!	!	!	!	!	!	!	!
!	!	!LO:TX:a:t=|:problem	!	!	!	!	!	!	!	!	!	!	!
!	!	!LO:TX:t=P:problem:mixed beam	!	!LO:TX:a:t=|:problem	!	!	!	!	!	!	!	!	!
*tremolo	*	*	*	*	*	*	*	*	*	*	*	*	*
8D\L	.	16dd\LL	.	16dd\LL	.	4F#/	-bis	4dd\	-bis	8dd\	8ff#\	.	.
.	.	(16f#/	.	(16dd\	.	.	.	.	.	.	.	.	.
8D\	.	16e/	.	16cc#\	.	.	.	.	.	8r	8r	.	.
.	.	16f#/JJ)	.	16dd\JJ)	.	.	.	.	.	.	.	.	.
8D\	.	16r	.	16r	.	4r	.	4r	.	8dd\	8ff#\	.	.
.	.	(16f#/LL	.	(16dd\LL	.	.	.	.	.	.	.	.	.
8D\J	.	16e/	.	16cc#\	.	.	.	.	.	8r	8r	.	.
.	.	16f#/JJ)	.	16dd\JJ)	.	.	.	.	.	.	.	.	.
*Xtremolo	*	*	*	*	*	*	*	*	*	*	*	*	*
!	!	!	!	!	!	!	!	!LO:LB:g=original	!	!	!	!	!
=30	=30	=30	=30	=30	=30	=30	=30	=30	=30	=30	=30	=30	=30
!	!	!	!	!	!	!	!	!	!	!LO:SIC:s=:v:t:prawdopodobnie	!	!	!
8G\L	.	16r	.	16r	.	00r	.	00r	.	8a/L	8ee\L	1ryy	1ryy
!	!	!LO:TX:a:t=|:problem	!	!	!	!	!	!	!	!	!	!	!
.	.	16gg\LL	.	16bb\LL	.	.	.	.	.	.	.	.	.
!	!	!	!	!	!	!	!	!	!	!LO:SIC:s=:v:t:prawdopodobnie	!	!	!
8G\	.	(16gg\	.	(16bb\	.	.	.	.	.	8a/	8ee\	.	.
.	.	16ff#\JJ)	.	16aa\JJ)	.	.	.	.	.	.	.	.	.
8A\	.	(16ff#\LL	.	(16aa\LL	.	.	.	.	.	8a/	8ee\	.	.
.	.	16ee\)	.	16gg\)	.	.	.	.	.	.	.	.	.
8A\J	.	(16ee\	.	(16gg\	.	.	.	.	.	8a/J	8ee\J	.	.
.	.	16cc#\JJ)	.	16ee\JJ)	.	.	.	.	.	.	.	.	.
*tremolo	*	*	*	*	*	*	*	*	*	*	*	*	*
!	!	!LO:TX:a:t=|:problem	!	!	!	!	!	!	!	!	!	!	!
!	!LO:DY:a:t=p	!LO:TX:t=P:problem:mixed beam	!	!	!LO:DY:b	!	!	!	!	!	!	!	!
8D\L	p	16dd\LL	.	16ff#\LL	p	.	.	.	.	4dd\	4ff#\	.	.
.	.	(16f#/	.	(16dd\	.	.	.	.	.	.	.	.	.
8D\	.	16e/	.	16cc#\	.	.	.	.	.	.	.	.	.
.	.	16f#/JJ)	.	16dd\JJ)	.	.	.	.	.	.	.	.	.
!	!	!	!LO:DY:a:t=p&colon;	!	!	!	!	!	!	!	!	!	!
8D\	.	16r	p	16r	.	.	.	.	.	4r	4r	.	.
.	.	(16f#/LL	.	(16dd\LL	.	.	.	.	.	.	.	.	.
8D\J	.	16e/	.	16cc#\	.	.	.	.	.	.	.	.	.
.	.	16f#/JJ)	.	16dd\JJ)	.	.	.	.	.	.	.	.	.
*Xtremolo	*	*	*	*	*	*	*	*	*	*	*	*	*
!	!	!	!	!LO:LB:g=original	!	!	!	!	!	!	!	!	!
=31	=31	=31	=31	=31	=31	=31	=31	=31	=31	=31	=31	=31	=31
8GG/L	.	16r	.	16r	.	.	.	.	.	2r	2r	1ryy	1ryy
!	!	!LO:TX:b:t=|:problem	!	!	!	!	!	!	!	!	!	!	!
.	.	16g/LL	.	(16b\LL	.	.	.	.	.	.	.	.	.
8GG/	.	(16g/	.	16b\	.	.	.	.	.	.	.	.	.
.	.	16f#/JJ)	.	16a\JJ)	.	.	.	.	.	.	.	.	.
8AA/	.	(16f#/LL	.	(16a/LL	.	.	.	.	.	.	.	.	.
.	.	16e/)	.	16g/)	.	.	.	.	.	.	.	.	.
8AA/J	.	(16e/	.	(16g/	.	.	.	.	.	.	.	.	.
.	.	16c#/JJ)	.	16e/JJ)	.	.	.	.	.	.	.	.	.
!	!LO:DY:a:t=f	!	!	!	!	!	!	!	!	!	!	!	!
8D\L	f	16.d/LL	.	16.f#/LL	.	.	.	.	.	8dd\L	8ff#\L	.	.
.	.	32d/K	.	32d/K	.	.	.	.	.	.	.	.	.
8D\	.	16.f#/	.	16.f#/	.	.	.	.	.	8dd\	8ff#\	.	.
.	.	32a/JJk	.	32a/JJk	.	.	.	.	.	.	.	.	.
8D\	.	16.dd\LL	.	16.dd\LL	.	.	.	.	.	8dd\	8ff#\	.	.
.	.	32ff#\JJk	.	32ff#\K	.	.	.	.	.	.	.	.	.
8G\J	.	16.b\LL	.	16.b\	.	.	.	.	.	8dd\J	8gg\J	.	.
.	.	32ee\JJk	.	32ee\JJk	.	.	.	.	.	.	.	.	.
=32	=32	=32	=32	=32	=32	=32	=32	=32	=32	=32	=32	=32	=32
!LO:TX:t=P:problem:mixed beam	!	!	!	!	!	!	!	!	!	!	!	!	!
8A\L	.	4dd\	.	4dd\	.	.	.	.	.	4dd\	4ff#\	1ryy	1ryy
8A\	.	.	.	.	.	.	.	.	.	.	.	.	.
8AA/	.	4cc#\	.	4ee\T	.	.	.	.	.	4a/	4ee\	.	.
8AA/J	.	.	.	.	.	.	.	.	.	.	.	.	.
8D\L	.	(16dd\LL	.	16dd\LL	.	.	.	.	.	4f#/	4dd\	.	.
.	.	16g\)	.	16b\	.	.	.	.	.	.	.	.	.
8D\	.	(16g\	.	16b\	.	.	.	.	.	.	.	.	.
.	.	16f#\JJ)	.	16a\JJ	.	.	.	.	.	.	.	.	.
8AA/	.	(16f#/LL	.	16a/LL	.	.	.	.	.	8r	8r	.	.
.	.	16e/)	.	16g/	.	.	.	.	.	.	.	.	.
8AA/J	.	(16e/	.	16g/	.	.	.	.	.	8a/	8ee\	.	.
.	.	16c#/JJ)	.	16e/JJ	.	.	.	.	.	.	.	.	.
=33	=33	=33	=33	=33	=33	=33	=33	=33	=33	=33	=33	=33	=33
!	!	!	!	!	!	!LO:SIC:o=:v:problem:obustronna repetycja i fermata na kresce	!	!	!	!	!	!	!
4D\	.	4d/	.	4f#/	.	.	.	.	.	4dd\	4ff#\	1ryy	1ryy
4r	.	4r	.	4r	.	.	.	.	.	4r	4r	.	.
2r	.	2r	.	2r	.	.	.	.	.	2r	2r	.	.
!LO:LB:g=original	!	!LO:LB:g=original	!	!LO:PB:g=original	!	!LO:LB:g=original	!	!LO:PB:g=original	!	!	!LO:LB:g=original	!	!
=34:||:;	=34||	=34:||:;	=34||	=34||	=34||	=34:||:;	=34||	=34||	=34||	=34:||:;	=34:||:;	=34||	=34||
*M2/4	*	*M2/4	*	*M2/4	*	*M2/4	*	*M2/4	*	*M2/4	*M2/4	*M2/4	*M2/4
!LO:TX:rj:i:b:t=Agnus	!	!	!	!LO:TX:b:i:t=Agnus Solo	!	!	!	!LO:TX:a:i:t=Solo	!	!	!	!	!
!LO:TX:rj:i:a:t=Allo&colon; non molto	!	!LO:TX:a:i:t=Agnus Solo	!	!LO:TX:i:a:t=Allegro molto	!	!LO:TX:rj:i:a:t=Agnus \nTacet	!	!LO:TX:i:a:t=Allegro non molto	!	!LO:TX:i:t=Agnus Solo Tacet	!	!	!
!	!	!	!	!	!	!	!	!LO:N:vis=00	!	!	!LO:TX::i:t=Agnus Solo Tacet	!	!
8r	.	8b/	.	8b\	.	2ryy	.	0r	.	2ryy	2ryy	2ryy	2ryy
8BB/L	.	4f#/	.	4f#/	.	.	.	.	.	.	.	.	.
8D\	.	.	.	.	.	.	.	.	.	.	.	.	.
8BB/J	.	8dd\	.	8dd\	.	.	.	.	.	.	.	.	.
=35	=35	=35	=35	=35	=35	=35	=35	=35	=35	=35	=35	=35	=35
!LO:TX:t=P:problem:mixed beam	!	!	!	!	!	!	!	!	!	!	!	!	!
8F#\L	.	8dd\	.	8dd\	.	2ryy	.	.	.	2ryy	2ryy	2ryy	2ryy
8F#\	.	4cc#\	.	4cc#\	.	.	.	.	.	.	.	.	.
8FF#/	.	.	.	.	.	.	.	.	.	.	.	.	.
8BB\J	.	8gg\	.	8gg\	.	.	.	.	.	.	.	.	.
=36	=36	=36	=36	=36	=36	=36	=36	=36	=36	=36	=36	=36	=36
8AA#X/L	.	4gg\	.	4gg\	.	2ryy	.	.	.	2ryy	2ryy	2ryy	2ryy
8AA#/	.	.	.	.	.	.	.	.	.	.	.	.	.
8AA#/	.	(16ff#\LL	.	(16ff#\LL	.	.	.	.	.	.	.	.	.
.	.	16ee\)	.	16ee\)	.	.	.	.	.	.	.	.	.
8AA#/J	.	(16dd\	.	(16dd\	.	.	.	.	.	.	.	.	.
.	.	16cc#\JJ)	.	16cc#\JJ)	.	.	.	.	.	.	.	.	.
=37	=37	=37	=37	=37	=37	=37	=37	=37	=37	=37	=37	=37	=37
8BB/L	.	(16dd\LL	.	(16dd\LL	.	2ryy	.	.	.	2ryy	2ryy	2ryy	2ryy
.	.	16cc#\J)	.	16cc#\J)	.	.	.	.	.	.	.	.	.
16BB/L	.	8b\J	.	8b\J	.	.	.	.	.	.	.	.	.
16C#/JJ	.	.	.	.	.	.	.	.	.	.	.	.	.
8D\L	.	8r	.	4r	.	.	.	.	.	.	.	.	.
8BB/J	.	8g/	.	.	.	.	.	.	.	.	.	.	.
=38	=38	=38	=38	=38	=38	=38	=38	=38	=38	=38	=38	=38	=38
*tremolo	*	*	*	*	*	*	*	*	*	*	*	*	*
!	!	!	!	!	!	!	!	!LO:N:vis=00	!	!	!	!	!
8AA#X/L	.	4g/	.	4g/	.	2ryy	.	0r	.	2ryy	2ryy	2ryy	2ryy
8AA#X/	.	.	.	.	.	.	.	.	.	.	.	.	.
8AA#X/	.	(16f#/LL	.	(16f#/LL	.	.	.	.	.	.	.	.	.
.	.	16e/)	.	16e/)	.	.	.	.	.	.	.	.	.
8AA#X/J	.	(16d/	.	(16d/	.	.	.	.	.	.	.	.	.
.	.	16c#/JJ)	.	16c#/JJ)	.	.	.	.	.	.	.	.	.
*Xtremolo	*	*	*	*	*	*	*	*	*	*	*	*	*
=39	=39	=39	=39	=39	=39	=39	=39	=39	=39	=39	=39	=39	=39
8BB/L	.	16d/LL	.	16d/LL	.	2ryy	.	.	.	2ryy	2ryy	2ryy	2ryy
.	.	16c#/J	.	16c#/J	.	.	.	.	.	.	.	.	.
16BB/L	.	8B/J	.	8B/J	.	.	.	.	.	.	.	.	.
16C#/JJ	.	.	.	.	.	.	.	.	.	.	.	.	.
8D\L	.	8r	.	8r	.	.	.	.	.	.	.	.	.
8D\J	.	8ff#\	.	8ff#\	.	.	.	.	.	.	.	.	.
=40	=40	=40	=40	=40	=40	=40	=40	=40	=40	=40	=40	=40	=40
4G\	.	4bb\	.	4bb\	.	2ryy	.	.	.	2ryy	2ryy	2ryy	2ryy
4G\	.	(16b\LL	.	(16b\LL	.	.	.	.	.	.	.	.	.
.	.	16cc#\	.	16cc#\)	.	.	.	.	.	.	.	.	.
.	.	16dd\	.	(16dd\	.	.	.	.	.	.	.	.	.
.	.	16ee\JJ)	.	16ee\JJ)	.	.	.	.	.	.	.	.	.
=41	=41	=41	=41	=41	=41	=41	=41	=41	=41	=41	=41	=41	=41
8F#\L	.	4ff#\	.	4ff#\	.	2ryy	.	.	.	2ryy	2ryy	2ryy	2ryy
16F#\L	.	.	.	.	.	.	.	.	.	.	.	.	.
16E\JJ	.	.	.	.	.	.	.	.	.	.	.	.	.
8D#X\L	.	8r	.	8r	.	.	.	.	.	.	.	.	.
8BB\J	.	8ff#\	.	8ff#\	.	.	.	.	.	.	.	.	.
!	!	!	!	!LO:LB:g=original	!	!	!	!	!	!	!	!	!
=42	=42	=42	=42	=42	=42	=42	=42	=42	=42	=42	=42	=42	=42
*tremolo	*	*	*	*	*	*	*	*	*	*	*	*	*
!	!	!	!	!	!	!	!	!LO:N:vis=00	!	!	!	!	!
8BB/L	.	16ff#\LL	.	(16ff#\LL	.	2ryy	.	0r	.	2ryy	2ryy	2ryy	2ryy
.	.	16dd#X\JJ	.	16dd#X\JJ)	.	.	.	.	.	.	.	.	.
8BB/	.	4b\	.	4b\	.	.	.	.	.	.	.	.	.
8BB/	.	.	.	.	.	.	.	.	.	.	.	.	.
8BB/J	.	8aa\	.	8aa\	.	.	.	.	.	.	.	.	.
=43	=43	=43	=43	=43	=43	=43	=43	=43	=43	=43	=43	=43	=43
8BB/L	.	16aa\LL	.	16aa\LL	.	2ryy	.	.	.	2ryy	2ryy	2ryy	2ryy
.	.	16ff#\JJ	.	16ff#\JJ	.	.	.	.	.	.	.	.	.
8BB/	.	4dd#X\	.	4dd#X\	.	.	.	.	.	.	.	.	.
8BB/	.	.	.	.	.	.	.	.	.	.	.	.	.
8BB/J	.	8ccn\	.	8ccn\	.	.	.	.	.	.	.	.	.
*Xtremolo	*	*	*	*	*	*	*	*	*	*	*	*	*
=44	=44	=44	=44	=44	=44	=44	=44	=44	=44	=44	=44	=44	=44
!	!	!LO:SIC:s=:v:4ccn	!	!LO:SIC:s=:v:4ccn	!	!	!	!	!	!	!	!	!
8D\L	.	4cc#\	.	4cc#\t	p	2ryy	.	.	.	2ryy	2ryy	2ryy	2ryy
8D\	.	.	.	.	.	.	.	.	.	.	.	.	.
!	!	!LO:TX:t=P:problem:mixed beam	!	!LO:TX:t=P:problem:mixed beam	!	!	!	!	!	!	!	!	!
8BB/	.	8b\L	.	8b\L	.	.	.	.	.	.	.	.	.
8BB/J	.	8d#X/J	.	8d#X/J	.	.	.	.	.	.	.	.	.
!	!	!LO:LB:g=original	!	!	!	!	!	!	!	!	!	!	!
=45	=45	=45	=45	=45	=45	=45	=45	=45	=45	=45	=45	=45	=45
8E\L	.	4e/	.	4e/	.	2ryy	.	.	.	2ryy	2ryy	2ryy	2ryy
16G\L	.	.	.	.	.	.	.	.	.	.	.	.	.
16F#\JJ	.	.	.	.	.	.	.	.	.	.	.	.	.
16E\LL	.	8r	.	8r	.	.	.	.	.	.	.	.	.
16Dn\	.	.	.	.	.	.	.	.	.	.	.	.	.
16C#\	.	8ee\	.	8ee\	.	.	.	.	.	.	.	.	.
16BB\JJ	.	.	.	.	.	.	.	.	.	.	.	.	.
=46	=46	=46	=46	=46	=46	=46	=46	=46	=46	=46	=46	=46	=46
*tremolo	*	*	*	*	*	*	*	*	*	*	*	*	*
!	!	!	!	!	!	!	!	!LO:N:vis=00	!	!	!	!	!
8AA/L	.	(16ee\LL	.	(16ee\LL	.	2ryy	.	0r	.	2ryy	2ryy	2ryy	2ryy
.	.	16cc#\JJ)	.	16cc#X\JJ)	.	.	.	.	.	.	.	.	.
8AA/	.	4a/	.	4a/	.	.	.	.	.	.	.	.	.
8AA/	.	.	.	.	.	.	.	.	.	.	.	.	.
8AA/J	.	8gg\	.	8gg\	.	.	.	.	.	.	.	.	.
=47	=47	=47	=47	=47	=47	=47	=47	=47	=47	=47	=47	=47	=47
8AA/L	.	(16gg\LL	.	(16gg\LL	.	2ryy	.	.	.	2ryy	2ryy	2ryy	2ryy
.	.	16ee\JJ)	.	16ee\JJ)	.	.	.	.	.	.	.	.	.
8AA/	.	4cc#\	.	4cc#\	.	.	.	.	.	.	.	.	.
8AA/	.	.	.	.	.	.	.	.	.	.	.	.	.
8AA/J	.	8b\	.	8b\	.	.	.	.	.	.	.	.	.
*Xtremolo	*	*	*	*	*	*	*	*	*	*	*	*	*
=48	=48	=48	=48	=48	=48	=48	=48	=48	=48	=48	=48	=48	=48
8C#/L	.	4b\T	.	4b\T	.	2ryy	.	.	.	2ryy	2ryy	2ryy	2ryy
8C#/	.	.	.	.	.	.	.	.	.	.	.	.	.
8AA/	.	8a/L	.	8a/L	.	.	.	.	.	.	.	.	.
8AA/J	.	8c#/J	.	8c#/J	.	.	.	.	.	.	.	.	.
!LO:LB:g=original	!	!	!	!	!	!	!	!	!	!	!	!	!
=49	=49	=49	=49	=49	=49	=49	=49	=49	=49	=49	=49	=49	=49
8D\L	.	4d/	.	4d/	.	2ryy	.	.	.	2ryy	2ryy	2ryy	2ryy
16F#\L	.	.	.	.	.	.	.	.	.	.	.	.	.
16E\JJ	.	.	.	.	.	.	.	.	.	.	.	.	.
8D\L	.	8r	.	8r	.	.	.	.	.	.	.	.	.
8BB\J	.	8ff#\	.	8ff#\	.	.	.	.	.	.	.	.	.
=50	=50	=50	=50	=50	=50	=50	=50	=50	=50	=50	=50	=50	=50
!	!	!	!	!	!	!	!	!LO:N:vis=00	!	!	!	!	!
8E\L	.	(8gg\L	.	(8gg\L	.	2ryy	.	0r	.	2ryy	2ryy	2ryy	2ryy
8D\	.	8gg#X\J)	.	8gg#X\)	.	.	.	.	.	.	.	.	.
8C#\	.	(8aa\L	.	(8aa\	.	.	.	.	.	.	.	.	.
8F#\J	.	8aa#X\J)	.	8aa#X\J)	.	.	.	.	.	.	.	.	.
!	!	!	!	!LO:LB:g=original	!	!	!	!	!	!	!	!	!
=51	=51	=51	=51	=51	=51	=51	=51	=51	=51	=51	=51	=51	=51
4BB/	.	8bb\	.	8bb\	.	2ryy	.	.	.	2ryy	2ryy	2ryy	2ryy
.	.	4b/	.	4b/	.	.	.	.	.	.	.	.	.
8r	.	.	.	.	.	.	.	.	.	.	.	.	.
8E\	.	8ee\	.	8ee\	.	.	.	.	.	.	.	.	.
=52	=52	=52	=52	=52	=52	=52	=52	=52	=52	=52	=52	=52	=52
!	!	!LO:TX:t=P:problem:klamra łukowa, kropka zamiast numeru	!	!LO:TX:t=P:problem:klamra łukowa, kropka zamiast numeru	!	!	!	!	!	!	!	!	!
4F#\	.	12dd\L	.	12dd\L	.	2ryy	.	.	.	2ryy	2ryy	2ryy	2ryy
.	.	12cc#\	.	12cc#\	.	.	.	.	.	.	.	.	.
.	.	12b\J	.	12b\J	.	.	.	.	.	.	.	.	.
4F#\	.	4cc#\	.	4cc#\t	.	.	.	.	.	.	.	.	.
=53	=53	=53	=53	=53	=53	=53	=53	=53	=53	=53	=53	=53	=53
!	!LO:DY:a:t=p	!	!	!	!	!	!	!	!	!	!	!	!
8BB/L	p	4b\	.	4b\	.	2ryy	.	.	.	2ryy	2ryy	2ryy	2ryy
16BB/L	.	.	.	.	.	.	.	.	.	.	.	.	.
16C#/JJ	.	.	.	.	.	.	.	.	.	.	.	.	.
!	!	!LO:TX:t=P:problem:p=p	!LO:DY:a:t=p	!	!	!	!	!	!	!	!	!	!
8D\L	.	8r	p	8r	.	.	.	.	.	.	.	.	.
8BB/J	.	8ff#\	.	8ff#\	.	.	.	.	.	.	.	.	.
=54	=54	=54	=54	=54	=54	=54	=54	=54	=54	=54	=54	=54	=54
!	!	!	!	!	!	!	!	!LO:N:vis=00	!	!	!	!	!
8E\L	.	(8gg\L	.	(8gg\L	.	2ryy	.	0r	.	2ryy	2ryy	2ryy	2ryy
8D\	.	8gg#X\)	.	8gg#X\)	.	.	.	.	.	.	.	.	.
8C#\	.	(8aa\	.	(8aa\	.	.	.	.	.	.	.	.	.
8F#\J	.	8aa#X\J)	.	8aa#X\J)	.	.	.	.	.	.	.	.	.
=55	=55	=55	=55	=55	=55	=55	=55	=55	=55	=55	=55	=55	=55
4BB/	.	8bb\	.	8bb\	.	2ryy	.	.	.	2ryy	2ryy	2ryy	2ryy
.	.	4b/	.	4b\	.	.	.	.	.	.	.	.	.
8r	.	.	.	.	.	.	.	.	.	.	.	.	.
8E\	.	8ee\	.	8ee\	.	.	.	.	.	.	.	.	.
=56	=56	=56	=56	=56	=56	=56	=56	=56	=56	=56	=56	=56	=56
!	!	!LO:TX:t=P:problem:klamra łukowa, kropka zamiast numeru	!	!LO:TX:t=P:problem:klamra łukowa, kropka zamiast numeru	!	!	!	!	!	!	!	!	!
4F#\	.	12dd\L	.	12dd\L	.	2ryy	.	.	.	2ryy	2ryy	2ryy	2ryy
.	.	12cc#\	.	12cc#\	.	.	.	.	.	.	.	.	.
.	.	12b\J	.	12b\J	.	.	.	.	.	.	.	.	.
4F#\	.	4cc#\t	.	4cc#\t	.	.	.	.	.	.	.	.	.
=57	=57	=57	=57	=57	=57	=57	=57	=57	=57	=57	=57	=57	=57
!	!LO:DY:a:t=f	!	!	!	!	!	!	!	!	!	!	!	!
8BB\L	f	8b\L	.	8b\L	.	2ryy	.	.	.	2ryy	2ryy	2ryy	2ryy
!	!	!	!LO:DY:a	!	!	!	!	!	!	!	!	!	!
8E\	.	8gg\	f	8gg\	f	.	.	.	.	.	.	.	.
8D\	.	8ff#\	.	(8ff#\	.	.	.	.	.	.	.	.	.
8E\J	.	8ee\J	.	8ee\J)	.	.	.	.	.	.	.	.	.
!	!	!LO:PB:g=original	!	!	!	!	!	!	!	!	!	!	!
=58	=58	=58	=58	=58	=58	=58	=58	=58	=58	=58	=58	=58	=58
!	!	!LO:TX:t=P:problem:klamra łukowa, kropka zamiast numeru	!	!LO:TX:t=P:problem:klamra łukowa, kropka zamiast numeru	!	!	!	!LO:N:vis=0	!	!	!	!	!
4F#\	.	12dd\L	.	12dd\L	.	2ryy	.	1r	.	2ryy	2ryy	2ryy	2ryy
.	.	12cc#\	.	12cc#\	.	.	.	.	.	.	.	.	.
.	.	12b\J	.	12b\J	.	.	.	.	.	.	.	.	.
4F#\	.	4cc#\t	.	4cc#\t	.	.	.	.	.	.	.	.	.
=59	=59	=59	=59	=59	=59	=59	=59	=59	=59	=59	=59	=59	=59
4BB/	.	8b\L	.	8b\L	.	2ryy	.	.	.	2ryy	2ryy	2ryy	2ryy
.	.	8f#\J	.	8f#\J	.	.	.	.	.	.	.	.	.
!	!	!	!	!LO:TX:t=P:problem:druga fermata na dole	!	!	!	!	!	!	!	!	!
4r	.	4B/	.	4B/;;	.	.	.	.	.	.	.	.	.
=60	=60	=60	=60	=60	=60	=60	=60	=60	=60	=60	=60	=60	=60
!	!LO:DY:a:t=p	!LO:TX:t=P:problem:p=p	!LO:DY:a:t=p	!	!	!	!	!	!	!	!	!	!
8r	p	8r	p	8b\	p	2ryy	.	4.b\	A-	2ryy	2ryy	2ryy	2ryy
8BB/L	.	8d/L	.	4f#/	.	.	.	.	.	.	.	.	.
8D\	.	8f#/	.	.	.	.	.	.	.	.	.	.	.
8BB/J	.	8d/J	.	8dd\	.	.	.	8dd\	-gnus	.	.	.	.
!	!	!	!	!LO:LB:g=original	!	!	!	!	!	!	!	!	!
=61	=61	=61	=61	=61	=61	=61	=61	=61	=61	=61	=61	=61	=61
!LO:TX:t=P:problem:mixed beam	!	!	!	!	!	!	!	!	!	!	!	!	!
8F#\L	.	8b\	.	8dd\	.	2ryy	.	8dd\	de-	2ryy	2ryy	2ryy	2ryy
8F#\	.	4a#X/	.	4cc#\	.	.	.	4cc#\	-i	.	.	.	.
8FF#/	.	.	.	.	.	.	.	.	.	.	.	.	.
8BB/J	.	8ee\	.	8gg\	.	.	.	8gg\	qui	.	.	.	.
=62	=62	=62	=62	=62	=62	=62	=62	=62	=62	=62	=62	=62	=62
*tremolo	*	*	*	*	*	*	*	*	*	*	*	*	*
!	!	!	!	!	!	!	!	!LO:SIC:s=:v:tol-	!	!	!	!	!
8AA#X/L	.	4ee\	.	4gg\	.	2ryy	.	4gg\	to-	2ryy	2ryy	2ryy	2ryy
8AA#X/	.	.	.	.	.	.	.	.	.	.	.	.	.
8AA#X/	.	16dd\LL	.	(16ff#\LL	.	.	.	16ff#\LL	-lis	.	.	.	.
.	.	16cc#\	.	16ee\)	.	.	.	16ee\JJ	.	.	.	.	.
8AA#X/J	.	16b\	.	(16dd\	.	.	.	16dd\LL	pec-	.	.	.	.
.	.	16a#X\JJ	.	16cc#\JJ)	.	.	.	16cc#\JJ	.	.	.	.	.
=63	=63	=63	=63	=63	=63	=63	=63	=63	=63	=63	=63	=63	=63
8BB/L	.	8b\L	.	(16dd\LL	.	2ryy	.	16dd\LL	-ca-	2ryy	2ryy	2ryy	2ryy
.	.	.	.	16cc#\J)	.	.	.	16cc#\JJ	.	.	.	.	.
16BB/L	.	16d/L	.	8b\J	.	.	.	8b\	-ta	.	.	.	.
16C#/JJ	.	16e/JJ	.	.	.	.	.	.	.	.	.	.	.
8D\L	.	8f#/L	.	8r	.	.	.	8r	.	.	.	.	.
8BB/J	.	8d/J	.	8g/	.	.	.	8gg\	qui	.	.	.	.
=64	=64	=64	=64	=64	=64	=64	=64	=64	=64	=64	=64	=64	=64
*	*	*tremolo	*	*	*	*	*	*	*	*	*	*	*
!	!	!	!	!	!	!	!	!LO:SIC:s=:v:tol-	!	!	!	!	!
8AA#X/L	.	8c#/L	.	4g/	.	2ryy	.	4gg\	to-	2ryy	2ryy	2ryy	2ryy
8AA#X/	.	8c#/	.	.	.	.	.	.	.	.	.	.	.
8AA#X/	.	8c#/	.	(16f#/LL	.	.	.	16ff#\LL	-lis	.	.	.	.
.	.	.	.	16e/)	.	.	.	16ee\JJ	.	.	.	.	.
!	!	!	!	!	!	!	!	!LO:SIC:s=:v:pec-	!	!	!	!	!
8AA#X/J	.	8c#/J	.	(16d/	.	.	.	16dd\LL	pce-	.	.	.	.
.	.	.	.	16c#/JJ)	.	.	.	16cc#\JJ	.	.	.	.	.
*Xtremolo	*	*Xtremolo	*	*	*	*	*	*	*	*	*	*	*
!LO:LB:g=original	!	!	!	!	!	!	!	!	!	!	!	!	!
=65	=65	=65	=65	=65	=65	=65	=65	=65	=65	=65	=65	=65	=65
!	!	!LO:TX:t=P:problem:mixed beam	!	!LO:TX:t=P:problem:mixed beam	!	!	!	!	!	!	!	!	!
4BB/	.	8d/L	.	8d/L	.	2ryy	.	16dd\LL	-ca-	2ryy	2ryy	2ryy	2ryy
.	.	.	.	.	.	.	.	16cc#\JJ	.	.	.	.	.
.	.	8b\	.	8dd\	.	.	.	8b\	-ta	.	.	.	.
8r	.	8b\	.	8dd\	.	.	.	8r	.	.	.	.	.
8F#\	.	8a#X/J	.	8cc#\J	.	.	.	8ff#\	pec-	.	.	.	.
!	!	!	!	!	!	!	!	!LO:LB:g=original	!	!	!	!	!
=66	=66	=66	=66	=66	=66	=66	=66	=66	=66	=66	=66	=66	=66
8BB/L	.	8b\L	.	8dd\L	.	2ryy	.	8dd\	-ca-	2ryy	2ryy	2ryy	2ryy
8BB/J	.	8a#X\	.	8cc#\	.	.	.	8cc#\	-ta	.	.	.	.
8E#X\L	.	8b\	.	8dd\	.	.	.	4dd\	mun-	.	.	.	.
8E#\J	.	8b\J	.	8dd\J	.	.	.	.	.	.	.	.	.
=67	=67	=67	=67	=67	=67	=67	=67	=67	=67	=67	=67	=67	=67
8F#\L	.	8a#X/L	.	8cc#\L	.	2ryy	.	4cc#\	-di	2ryy	2ryy	2ryy	2ryy
8D\J	.	8dd\J	.	(16dd\L	.	.	.	.	.	.	.	.	.
.	.	.	.	16ff#\JJ)	.	.	.	.	.	.	.	.	.
8AA/L	.	16cc#\LL	.	(16ee\LL	.	.	.	4r	.	.	.	.	.
.	.	16ee\	.	16gg\)	.	.	.	.	.	.	.	.	.
8AA/J	.	16dd\	.	(16ff#\	.	.	.	.	.	.	.	.	.
.	.	16cc#\JJ	.	16ee\JJ)	.	.	.	.	.	.	.	.	.
=68	=68	=68	=68	=68	=68	=68	=68	=68	=68	=68	=68	=68	=68
!	!	!	!	!LO:TX:t=P:problem:klamra łukowa, kropka zamiast numeru	!	!	!	!	!	!	!	!	!
8D\L	.	8dd\L	.	12dd\L	.	2ryy	.	4dd\	mi-	2ryy	2ryy	2ryy	2ryy
.	.	.	.	12cc#\	.	.	.	.	.	.	.	.	.
8D\	.	8ff#\J	.	.	.	.	.	.	.	.	.	.	.
.	.	.	.	12b\J	.	.	.	.	.	.	.	.	.
8G\	.	16ee\LL	.	4cc#\	.	.	.	(16dd\LL	.	.	.	.	.
.	.	16dd\	.	.	.	.	.	16cc#\)JJ	.	.	.	.	.
8A\J	.	16cc#\	.	.	.	.	.	(16ee\LL	-se-	.	.	.	.
.	.	16ee\JJ	.	.	.	.	.	16cc#\JJ)	.	.	.	.	.
=69	=69	=69	=69	=69	=69	=69	=69	=69	=69	=69	=69	=69	=69
4D\	.	4dd\	.	4ff#\	.	2ryy	.	8dd\L	-re-	2ryy	2ryy	2ryy	2ryy
.	.	.	.	.	.	.	.	8ff#\J	.	.	.	.	.
8r	.	8r	.	8r	.	.	.	8aa\	.	.	.	.	.
8A\	.	8cc#\	.	8ee\	.	.	.	8cc#\	-re	.	.	.	.
!	!	!LO:LB:g=original	!	!LO:LB:g=original	!	!	!	!	!	!	!	!	!
=70	=70	=70	=70	=70	=70	=70	=70	=70	=70	=70	=70	=70	=70
!	!	!	!	!	!	!	!	!LO:SIC:s=:v:mi-	!	!	!	!	!
8D\L	.	8dd\L	.	8ff#\L	.	2ryy	.	4dd\	m-	2ryy	2ryy	2ryy	2ryy
8D\	.	8ff#\J	.	8aa\J	.	.	.	.	.	.	.	.	.
8G\	.	16ee\LL	.	16gg\LL	.	.	.	(16dd\LL	.	.	.	.	.
.	.	16dd\	.	16ff#\	.	.	.	16cc#\)JJ	.	.	.	.	.
8A\J	.	16cc#\	.	16ee\	.	.	.	(16ee\LL	-se-	.	.	.	.
.	.	16ee\JJ	.	16gg\JJ	.	.	.	16cc#\JJ)	.	.	.	.	.
=71	=71	=71	=71	=71	=71	=71	=71	=71	=71	=71	=71	=71	=71
4D/	.	4dd\	.	4ff#\	.	2ryy	.	8dd\L	-re-	2ryy	2ryy	2ryy	2ryy
.	.	.	.	.	.	.	.	8ff#\J	.	.	.	.	.
8r	.	8r	.	8r	.	.	.	8aa\	.	.	.	.	.
8D/	.	8g/	.	8b/	.	.	.	8b\	-re	.	.	.	.
=72	=72	=72	=72	=72	=72	=72	=72	=72	=72	=72	=72	=72	=72
*tremolo	*	*	*	*	*	*	*	*	*	*	*	*	*
8AA/L	.	8f#/L	.	8a/L	.	2ryy	.	4a\	no-	2ryy	2ryy	2ryy	2ryy
8AA/	.	8f#/	.	8a/J	.	.	.	.	.	.	.	.	.
8AA/	.	8e/	.	8g/L	.	.	.	4g\	.	.	.	.	.
8AA/J	.	8e/J	.	8g/J	.	.	.	.	.	.	.	.	.
*Xtremolo	*	*	*	*	*	*	*	*	*	*	*	*	*
=73	=73	=73	=73	=73	=73	=73	=73	=73	=73	=73	=73	=73	=73
4D\	.	4d/	.	4f#/	.	2ryy	.	4f#/	-bis	2ryy	2ryy	2ryy	2ryy
!	!	!	!	!	!	!	!	!LO:TX:t=P:problem:lamra łuowa, kropka zamiast numeru	!	!	!	!	!
8D\L	.	8a/L	.	8ccn\L	.	.	.	24a\LL	mi-	.	.	.	.
.	.	.	.	.	.	.	.	24b\	.	.	.	.	.
.	.	.	.	.	.	.	.	24ccn\JJ	.	.	.	.	.
*	*	*	*	*	*	*	*	*Xtuplet	*	*	*	*	*
8D\J	.	8a/J	.	8cc\J	.	.	.	24cc\LL	-se-	.	.	.	.
.	.	.	.	.	.	.	.	24b\	.	.	.	.	.
.	.	.	.	.	.	.	.	24a\JJ	.	.	.	.	.
!	!	!	!	!	!	!	!	!LO:LB:g=original	!	!	!	!	!
=74	=74	=74	=74	=74	=74	=74	=74	=74	=74	=74	=74	=74	=74
!	!	!LO:TX:t=P:problem:mixed beam	!	!	!	!	!	!	!	!	!	!	!
8G\L	.	8d/L	.	8b\L	.	2ryy	.	4b\	-re-	2ryy	2ryy	2ryy	2ryy
8G\	.	8d/	.	8b\	.	.	.	.	.	.	.	.	.
8E\	.	8b\	.	8dd\	.	.	.	24b\LL	.	.	.	.	.
.	.	.	.	.	.	.	.	24cc#X\	.	.	.	.	.
.	.	.	.	.	.	.	.	24dd\JJ	.	.	.	.	.
!	!	!	!	!	!	!	!	!LO:TX:t=P:problem:klamra łukowa, kropka zamiast numeru	!	!	!	!	!
8E\J	.	8b\J	.	8dd\J	.	.	.	24dd\LL	.	.	.	.	.
.	.	.	.	.	.	.	.	24cc#\	.	.	.	.	.
.	.	.	.	.	.	.	.	24b\JJ	.	.	.	.	.
=75	=75	=75	=75	=75	=75	=75	=75	=75	=75	=75	=75	=75	=75
!	!	!LO:TX:t=P:problem:mixed beam	!	!	!	!	!	!	!	!	!	!	!
8A\L	.	8e/L	.	8cc#\L	.	2ryy	.	4cc#\	.	2ryy	2ryy	2ryy	2ryy
8A\	.	8e/	.	8cc#\	.	.	.	.	.	.	.	.	.
!	!	!	!	!	!	!	!	!LO:TX:t=P:problem:klamra łukowa, kropka zamiast numeru	!	!	!	!	!
8F#\	.	8cc#\	.	8ee\	.	.	.	24cc#\LL	.	.	.	.	.
.	.	.	.	.	.	.	.	24dd\	.	.	.	.	.
.	.	.	.	.	.	.	.	24ee\JJ	.	.	.	.	.
!	!	!	!	!	!	!	!	!LO:TX:t=P:problem:klamra łukowa, kropka zamiast numeru	!	!	!	!	!
8F#\J	.	8cc#\J	.	8ee\J	.	.	.	24ee\LL	.	.	.	.	.
.	.	.	.	.	.	.	.	24dd\	.	.	.	.	.
.	.	.	.	.	.	.	.	24cc#\JJ	.	.	.	.	.
=76	=76	=76	=76	=76	=76	=76	=76	=76	=76	=76	=76	=76	=76
!	!	!LO:TX:t=P:problem:mixed beam	!	!	!	!	!	!	!	!	!	!	!
8B\L	.	8f#/L	.	8dd\L	.	2ryy	.	4dd\	.	2ryy	2ryy	2ryy	2ryy
8B\	.	8f#/	.	8dd\	.	.	.	.	.	.	.	.	.
!	!	!	!	!	!	!	!	!LO:TX:t=P:problem:klamra łukowa, kropka zamiast numeru	!	!	!	!	!
8G\	.	8dd\	.	8ff#\	.	.	.	24dd\LL	.	.	.	.	.
.	.	.	.	.	.	.	.	24ee\	.	.	.	.	.
.	.	.	.	.	.	.	.	24ff#\JJ	.	.	.	.	.
!	!	!	!	!	!	!	!	!LO:TX:t=P:problem:klamra łukowa, kropka zamiast numeru	!	!	!	!	!
8G\J	.	8dd\J	.	8ff#\J	.	.	.	24ff#\LL	.	.	.	.	.
.	.	.	.	.	.	.	.	24ee\	.	.	.	.	.
.	.	.	.	.	.	.	.	24dd\JJ	.	.	.	.	.
=77	=77	=77	=77	=77	=77	=77	=77	=77	=77	=77	=77	=77	=77
!	!	!LO:TX:t=P:problem:mixed beam	!	!	!	!	!	!	!	!	!	!	!
8c#\L	.	8g/L	.	8ee\L	.	2ryy	.	4ee\	.	2ryy	2ryy	2ryy	2ryy
8c#\	.	8g/	.	8ee\	.	.	.	.	.	.	.	.	.
!	!	!	!	!	!	!	!	!LO:TX:t=P:problem:klamra łukowa, kropka zamiast numeru	!	!	!	!	!
8A\	.	8ee\	.	8gg\	.	.	.	24ee\LL	.	.	.	.	.
.	.	.	.	.	.	.	.	24ff#\	.	.	.	.	.
.	.	.	.	.	.	.	.	24gg\JJ	.	.	.	.	.
8A\J	.	8ee\J	.	8gg\J	.	.	.	24gg\LL	.	.	.	.	.
.	.	.	.	.	.	.	.	24ff#\	.	.	.	.	.
.	.	.	.	.	.	.	.	24ee\JJ	.	.	.	.	.
=78	=78	=78	=78	=78	=78	=78	=78	=78	=78	=78	=78	=78	=78
4D\	.	8a/L	.	8ff#\L	.	2ryy	.	8ff#\L	.	2ryy	2ryy	2ryy	2ryy
.	.	8g/	.	8ee\	.	.	.	8cc#\J	.	.	.	.	.
8r	.	8f#/	.	8dd\	.	.	.	8dd\	.	.	.	.	.
8G\	.	8b\J	.	8ee\J	.	.	.	8b\	-re	.	.	.	.
=79	=79	=79	=79	=79	=79	=79	=79	=79	=79	=79	=79	=79	=79
!LO:TX:t=P:problem:mixed beam	!	!	!	!	!	!	!	!	!	!	!	!	!
8A\L	.	4a/	.	4a/	.	2ryy	.	4a\	no-	2ryy	2ryy	2ryy	2ryy
8A\	.	.	.	.	.	.	.	.	.	.	.	.	.
8AA/	.	4b/	.	4ee\T	.	.	.	4ee\T	.	.	.	.	.
8AA/J	.	.	.	.	.	.	.	.	.	.	.	.	.
!LO:LB:g=original	!	!	!	!LO:LB:g=original	!	!	!	!	!	!	!	!	!
=80	=80	=80	=80	=80	=80	=80	=80	=80	=80	=80	=80	=80	=80
!	!LO:DY:a:t=f	!	!LO:DY:a:t=f	!	!	!	!	!	!	!	!	!	!
8D\L	f	8dd\	f	8dd\	.	2ryy	.	4dd\	-bis	2ryy	2ryy	2ryy	2ryy
!	!	!	!	!	!LO:DY:a	!	!	!	!	!	!	!	!
8D\	.	4d/	.	4d/	f	.	.	.	.	.	.	.	.
8F#\	.	.	.	.	.	.	.	4r	.	.	.	.	.
8D\J	.	8ff#\	.	8ff#\	.	.	.	.	.	.	.	.	.
=81	=81	=81	=81	=81	=81	=81	=81	=81	=81	=81	=81	=81	=81
!LO:TX:t=P:problem:mixed beam	!	!	!	!	!	!	!	!	!	!	!	!	!
!	!	!	!	!	!	!	!	!LO:N:vis=00	!	!	!	!	!
8A\L	.	8ff#\	.	8ff#\	.	2ryy	.	0r	.	2ryy	2ryy	2ryy	2ryy
8A\	.	4ee\	.	4ee\	.	.	.	.	.	.	.	.	.
8AA/	.	.	.	.	.	.	.	.	.	.	.	.	.
8D\J	.	8bb\	.	8bb\	.	.	.	.	.	.	.	.	.
=82	=82	=82	=82	=82	=82	=82	=82	=82	=82	=82	=82	=82	=82
*tremolo	*	*	*	*	*	*	*	*	*	*	*	*	*
8C#X/L	.	4bb\	.	4bb\	.	2ryy	.	.	.	2ryy	2ryy	2ryy	2ryy
8C#X/	.	.	.	.	.	.	.	.	.	.	.	.	.
8C#X/	.	16aa\LL	.	(16aa\LL	.	.	.	.	.	.	.	.	.
.	.	16gg\	.	16gg\)	.	.	.	.	.	.	.	.	.
8C#X/J	.	16ff#\	.	(16ff#\	.	.	.	.	.	.	.	.	.
.	.	16ee\JJ	.	16ee\JJ)	.	.	.	.	.	.	.	.	.
=83	=83	=83	=83	=83	=83	=83	=83	=83	=83	=83	=83	=83	=83
8D\L	.	16ff#\LL	.	16ff#\LL	.	2ryy	.	.	.	2ryy	2ryy	2ryy	2ryy
.	.	16ee\J	.	16ee\J	.	.	.	.	.	.	.	.	.
16D\L	.	8dd\J	.	8dd\J	.	.	.	.	.	.	.	.	.
16E\JJ	.	.	.	.	.	.	.	.	.	.	.	.	.
8F#\L	.	8r	.	8r	.	.	.	.	.	.	.	.	.
8D\J	.	8b/	.	8b/	.	.	.	.	.	.	.	.	.
!	!	!LO:LB:g=original	!	!	!	!	!	!	!	!	!	!	!
=84	=84	=84	=84	=84	=84	=84	=84	=84	=84	=84	=84	=84	=84
8C#X/L	.	4b\	.	4b/	.	2ryy	.	.	.	2ryy	2ryy	2ryy	2ryy
8C#X/	.	.	.	.	.	.	.	.	.	.	.	.	.
8C#X/	.	16a/LL	.	16a/LL	.	.	.	.	.	.	.	.	.
.	.	16g/	.	16g/	.	.	.	.	.	.	.	.	.
8C#X/J	.	16f#/	.	16f#/	.	.	.	.	.	.	.	.	.
.	.	16e/JJ	.	16e/JJ	.	.	.	.	.	.	.	.	.
*Xtremolo	*	*	*	*	*	*	*	*	*	*	*	*	*
=85	=85	=85	=85	=85	=85	=85	=85	=85	=85	=85	=85	=85	=85
!	!	!	!	!	!	!	!	!LO:N:vis=00	!	!	!	!	!
8D\L	.	16f#/LL	.	16f#/LL	.	2ryy	.	0r	.	2ryy	2ryy	2ryy	2ryy
.	.	16e/J	.	16e/J	.	.	.	.	.	.	.	.	.
16D\L	.	8d/J	.	8d/J	.	.	.	.	.	.	.	.	.
16E\JJ	.	.	.	.	.	.	.	.	.	.	.	.	.
8F#\L	.	8r	.	8r	.	.	.	.	.	.	.	.	.
8D\J	.	8a/	.	8a/	.	.	.	.	.	.	.	.	.
=86	=86	=86	=86	=86	=86	=86	=86	=86	=86	=86	=86	=86	=86
8G\L	.	(8b-X\L	.	(8b-X\L	.	2ryy	.	.	.	2ryy	2ryy	2ryy	2ryy
!LO:TX:t=P:problem:♮above	!	!	!	!	!	!	!	!	!	!	!	!	!
8Fn\	.	8bn\J)	.	8bn\)	.	.	.	.	.	.	.	.	.
8E\	.	(8ccn\L	.	(8ccn\	.	.	.	.	.	.	.	.	.
8A\J	.	8cc#X\J)	.	8cc#X\J)	.	.	.	.	.	.	.	.	.
=87	=87	=87	=87	=87	=87	=87	=87	=87	=87	=87	=87	=87	=87
4D\	.	8dd\	.	8dd\	.	2ryy	.	.	.	2ryy	2ryy	2ryy	2ryy
.	.	4d/	.	4d/	.	.	.	.	.	.	.	.	.
8r	.	.	.	.	.	.	.	.	.	.	.	.	.
8G\	.	8g/	.	8g/	.	.	.	.	.	.	.	.	.
=88	=88	=88	=88	=88	=88	=88	=88	=88	=88	=88	=88	=88	=88
!	!	!LO:TX:t=P:problem:klamra łukowa, kropka zamiast numeru	!	!LO:TX:t=P:problem:klamra łukowa, kropka zamiast numeru	!	!	!	!	!	!	!	!	!
4A\	.	12f#X/L	.	12f#X/L	.	2ryy	.	.	.	2ryy	2ryy	2ryy	2ryy
.	.	12e/	.	12e/	.	.	.	.	.	.	.	.	.
.	.	12d/J	.	12d/J	.	.	.	.	.	.	.	.	.
4AA/	.	4e/T	.	4e/T	.	.	.	.	.	.	.	.	.
!	!	!	!	!LO:LB:g=original	!	!	!	!	!	!	!	!	!
=89	=89	=89	=89	=89	=89	=89	=89	=89	=89	=89	=89	=89	=89
!	!	!	!	!	!	!	!	!LO:N:vis=00	!	!	!	!	!
8D\L	.	4d/	.	4d/	.	2ryy	.	0r	.	2ryy	2ryy	2ryy	2ryy
8E\	.	.	.	.	.	.	.	.	.	.	.	.	.
8F#X\	.	8r	.	8r	.	.	.	.	.	.	.	.	.
!	!	!	!LO:DY:a:t=p&colon;	!	!LO:DY:a	!	!	!	!	!	!	!	!
8D\J	.	8a/	p	8a/	p	.	.	.	.	.	.	.	.
=90	=90	=90	=90	=90	=90	=90	=90	=90	=90	=90	=90	=90	=90
8G\L	.	(8b-X\L	.	(8b-X\L	.	2ryy	.	.	.	2ryy	2ryy	2ryy	2ryy
8Fn\	.	8bn\J)	.	8bn\)	.	.	.	.	.	.	.	.	.
8E\	.	(8ccn\L	.	(8ccn\	.	.	.	.	.	.	.	.	.
8A\J	.	8cc#X\J)	.	8cc#X\J)	.	.	.	.	.	.	.	.	.
=91	=91	=91	=91	=91	=91	=91	=91	=91	=91	=91	=91	=91	=91
4D\	.	8dd\	.	8dd\	.	2ryy	.	.	.	2ryy	2ryy	2ryy	2ryy
.	.	4d/	.	4d/	.	.	.	.	.	.	.	.	.
8r	.	.	.	.	.	.	.	.	.	.	.	.	.
8G\	.	8gg\	.	8gg\	.	.	.	.	.	.	.	.	.
=92	=92	=92	=92	=92	=92	=92	=92	=92	=92	=92	=92	=92	=92
!	!	!LO:TX:t=P:problem:klamra łukowa, kropka zamiast numeru	!	!LO:TX:t=P:problem:klamra łukowa, kropka zamiast numeru	!	!	!	!	!	!	!	!	!
4A\	.	12ff#X\L	.	12ff#X\L	.	2ryy	.	.	.	2ryy	2ryy	2ryy	2ryy
.	.	12ee\	.	12ee\	.	.	.	.	.	.	.	.	.
.	.	12dd\J	.	12dd\J	.	.	.	.	.	.	.	.	.
4AA/	.	4ee\T	.	4ee\T	.	.	.	.	.	.	.	.	.
=93	=93	=93	=93	=93	=93	=93	=93	=93	=93	=93	=93	=93	=93
!	!LO:DY:a	!	!LO:DY:a	!	!LO:DY:a	!	!	!	!	!	!	!	!
!	!	!	!	!	!	!	!	!LO:N:vis=0	!	!	!	!	!
8D\L	f	8dd\L	f	8dd\L	f	2ryy	.	1r	.	2ryy	2ryy	2ryy	2ryy
8G\	.	8b\	.	(8b\	.	.	.	.	.	.	.	.	.
8F#\	.	8a\	.	8a\)	.	.	.	.	.	.	.	.	.
8G\J	.	8g\J	.	8g\J	.	.	.	.	.	.	.	.	.
=94	=94	=94	=94	=94	=94	=94	=94	=94	=94	=94	=94	=94	=94
!LO:TX:t=P:problem:mixed beam	!LO:TX:t=P:problem:klamra łukowa, kropka zamiast numeru	!	!	!LO:TX:t=P:problem:klamra łukowa, kropka zamiast numeru	!	!	!	!	!	!	!	!	!
8A\L	.	12f#/L	.	12f#/L	.	2ryy	.	.	.	2ryy	2ryy	2ryy	2ryy
.	.	12e/	.	12e/	.	.	.	.	.	.	.	.	.
8A\	.	.	.	.	.	.	.	.	.	.	.	.	.
.	.	12d/J	.	12d/J	.	.	.	.	.	.	.	.	.
8AA/	.	4ee\T	.	4ee\T	.	.	.	.	.	.	.	.	.
8AA/J	.	.	.	.	.	.	.	.	.	.	.	.	.
=95	=95	=95	=95	=95	=95	=95	=95	=95	=95	=95	=95	=95	=95
4D\	.	8dd\L	.	8dd\L	.	2ryy	.	2r	.	2ryy	2ryy	2ryy	2ryy
.	.	8a\J	.	8a/J	.	.	.	.	.	.	.	.	.
4r	.	4d/	.	4d/	.	.	.	.	.	.	.	.	.
!LO:LB:g=original	!	!LO:LB:g=original	!	!	!	!	!	!LO:LB:g=original	!	!	!	!	!
=96	=96	=96	=96	=96	=96	=96	=96	=96	=96	=96	=96	=96	=96
!	!LO:DY:a:t=p	!	!	!	!LO:DY:a	!	!	!	!	!	!	!	!
8r	p	8r	.	8dd\	p	2ryy	.	4.dd\	A-	2ryy	2ryy	2ryy	2ryy
!	!	!	!LO:DY:a:t=p	!	!	!	!	!	!	!	!	!	!
8D\L	.	8f#/L	p	4d/	.	.	.	.	.	.	.	.	.
8F#\	.	8a/	.	.	.	.	.	.	.	.	.	.	.
8D\J	.	8f#/J	.	8ff#\	.	.	.	8ff#\	-gnus	.	.	.	.
=97	=97	=97	=97	=97	=97	=97	=97	=97	=97	=97	=97	=97	=97
!LO:TX:t=P:problem:mixed beam	!	!	!	!	!	!	!	!	!	!	!	!	!
8A\L	.	8dd\	.	8ff#\	.	2ryy	.	8ff#\	De-	2ryy	2ryy	2ryy	2ryy
8A\	.	4cc#\	.	4ee\	.	.	.	4ee\	-i	.	.	.	.
8AA/	.	.	.	.	.	.	.	.	.	.	.	.	.
8D\J	.	8gg\	.	8bb\	.	.	.	8b\	qui	.	.	.	.
=98	=98	=98	=98	=98	=98	=98	=98	=98	=98	=98	=98	=98	=98
8C#X/L	.	4gg\	.	4bb\	.	2ryy	.	4b\	tol-	2ryy	2ryy	2ryy	2ryy
8C#/	.	.	.	.	.	.	.	.	.	.	.	.	.
8C#/	.	16ff#\LL	.	(16aa\LL	.	.	.	16a\LL	-lis	.	.	.	.
.	.	16ee\	.	16gg\)	.	.	.	16gg\JJ	.	.	.	.	.
8C#/J	.	16dd\	.	(16ff#\	.	.	.	16ff#\LL	pec-	.	.	.	.
.	.	16cc#\JJ	.	16ee\JJ)	.	.	.	16ee\JJ	.	.	.	.	.
!	!	!	!	!LO:LB:g=original	!	!	!	!	!	!	!	!	!
=99	=99	=99	=99	=99	=99	=99	=99	=99	=99	=99	=99	=99	=99
!	!	!	!	!	!	!	!	!LO:SIC:s=:v:-ca-	!	!	!	!	!
4D\	.	16dd\LL	.	(16ff#\LL	.	2ryy	.	16ff#\LL	-cat	2ryy	2ryy	2ryy	2ryy
.	.	16cc#\J	.	16ee\J	.	.	.	16ee\JJ	.	.	.	.	.
!	!	!	!	!	!	!	!	!LO:SIC:s=:v:-ta	!	!	!	!	!
.	.	8dd\J	.	8dd\J)	.	.	.	8dd\	.	.	.	.	.
8r	.	8r	.	8r	.	.	.	8r	.	.	.	.	.
8D\	.	8g/	.	8b\	.	.	.	8b\	pec-	.	.	.	.
=100	=100	=100	=100	=100	=100	=100	=100	=100	=100	=100	=100	=100	=100
*tremolo	*	*	*	*	*	*	*	*	*	*	*	*	*
8C#X/L	.	4g/	.	4b/	.	2ryy	.	4b\	-ca-	2ryy	2ryy	2ryy	2ryy
8C#X/	.	.	.	.	.	.	.	.	.	.	.	.	.
8C#X/	.	(16f#/LL	.	(16a/LL	.	.	.	16a\LL	.	.	.	.	.
.	.	16e/)	.	16g/)	.	.	.	16gg\JJ	.	.	.	.	.
8C#X/J	.	(16d/	.	(16f#/	.	.	.	16ff#\LL	-ta	.	.	.	.
.	.	16c#/JJ)	.	16e/JJ)	.	.	.	16ee\JJ	.	.	.	.	.
*Xtremolo	*	*	*	*	*	*	*	*	*	*	*	*	*
=101	=101	=101	=101	=101	=101	=101	=101	=101	=101	=101	=101	=101	=101
4D\	.	(16d/LL	.	16f#/LL	.	2ryy	.	16ff#\LL	mun-	2ryy	2ryy	2ryy	2ryy
.	.	16f#/)	.	16a/	.	.	.	16ee\JJ	.	.	.	.	.
.	.	(16f#/	.	16a/	.	.	.	8dd\	-di	.	.	.	.
.	.	16g/JJ)	.	16b\JJ	.	.	.	.	.	.	.	.	.
4r	.	(16g/LL	.	(16b\LL	.	.	.	4r	.	.	.	.	.
.	.	16e/)	.	16cc#\)	.	.	.	.	.	.	.	.	.
.	.	(16e/	.	(16cc#\	.	.	.	.	.	.	.	.	.
.	.	16f#/JJ)	.	16dd\JJ)	.	.	.	.	.	.	.	.	.
=102	=102	=102	=102	=102	=102	=102	=102	=102	=102	=102	=102	=102	=102
!	!	!LO:TX:t=P:problem:mixed beam	!	!	!	!	!	!	!	!	!	!	!
8D\L	.	8f#/L	.	8dd\L	.	2ryy	.	4dd\	mi-	2ryy	2ryy	2ryy	2ryy
8D\	.	8ff#\J	.	8aa\J	.	.	.	.	.	.	.	.	.
8G\	.	16ee\LL	.	(16gg\LL	.	.	.	(16dd\LL	.	.	.	.	.
.	.	16dd\	.	16ff#\	.	.	.	16cc#\)	.	.	.	.	.
!	!	!	!	!	!	!	!	!LO:SIC:s=:v:-se-	!	!	!	!	!
8A\J	.	16cc#\	.	16ee\	.	.	.	(16ee\	.	.	.	.	.
.	.	16ee\JJ	.	16gg\JJ)	.	.	.	16cc#\JJ)	.	.	.	.	.
=103	=103	=103	=103	=103	=103	=103	=103	=103	=103	=103	=103	=103	=103
4D\	.	4dd\	.	4ff#\	.	2ryy	.	8dd\	-re-	2ryy	2ryy	2ryy	2ryy
.	.	.	.	.	.	.	.	8ff#\	.	.	.	.	.
8r	.	8r	.	8r	.	.	.	8aa\	.	.	.	.	.
8A\	.	8cc#\	.	8ee\	.	.	.	8cc#\	-re	.	.	.	.
!	!	!	!	!	!	!	!	!LO:LB:g=original	!	!	!	!	!
=104	=104	=104	=104	=104	=104	=104	=104	=104	=104	=104	=104	=104	=104
8D\L	.	8dd\L	.	8ff#\L	.	2ryy	.	4dd\	mi-	2ryy	2ryy	2ryy	2ryy
8D\	.	8ff#\J	.	8aa\J	.	.	.	.	.	.	.	.	.
8G\	.	16ee\LL	.	(16gg\LL	.	.	.	(16dd\LL	.	.	.	.	.
.	.	16dd\	.	16ff#\	.	.	.	16cc#\)	.	.	.	.	.
8A\J	.	16cc#\	.	16ee\	.	.	.	(16ee\	-se-	.	.	.	.
.	.	16ee\JJ	.	16gg\JJ)	.	.	.	16cc#\JJ)	.	.	.	.	.
=105	=105	=105	=105	=105	=105	=105	=105	=105	=105	=105	=105	=105	=105
4D\	.	4dd\	.	4ff#\	.	2ryy	.	8dd\L	-re-	2ryy	2ryy	2ryy	2ryy
.	.	.	.	.	.	.	.	8ff#\J	.	.	.	.	.
8r	.	8r	.	8r	.	.	.	8aa\	.	.	.	.	.
8D/	.	8a/	.	8ff#\	.	.	.	8dd\	-re	.	.	.	.
=106	=106	=106	=106	=106	=106	=106	=106	=106	=106	=106	=106	=106	=106
!LO:TX:t=P:problem:mixed beam	!	!	!	!	!	!	!	!	!	!	!	!	!
8A\L	.	8ee\L	.	8gg\L	.	2ryy	.	4gg\	no-	2ryy	2ryy	2ryy	2ryy
8AA/	.	8ee\	.	8gg\	.	.	.	.	.	.	.	.	.
8AA/	.	8dd\	.	8ff#\	.	.	.	4ff#\	.	.	.	.	.
8AA/J	.	8dd\J	.	8ff#\J	.	.	.	.	.	.	.	.	.
!	!	!	!	!LO:LB:g=original	!	!	!	!	!	!	!	!	!
=107	=107	=107	=107	=107	=107	=107	=107	=107	=107	=107	=107	=107	=107
*tremolo	*	*	*	*	*	*	*	*	*	*	*	*	*
8AA/L	.	8cc#\L	.	8ee\L	.	2ryy	.	4ee\	-bis	2ryy	2ryy	2ryy	2ryy
8AA/	.	8cc#\	.	8ee\	.	.	.	.	.	.	.	.	.
8AA/	.	8cc#\	.	8ee\	.	.	.	4r	.	.	.	.	.
8AA/J	.	8cc#\J	.	8ee\J	.	.	.	.	.	.	.	.	.
*Xtremolo	*	*	*	*	*	*	*	*	*	*	*	*	*
!	!	!LO:LB:g=original	!	!	!	!	!	!	!	!	!	!	!
=108	=108	=108	=108	=108	=108	=108	=108	=108	=108	=108	=108	=108	=108
8AA/L	.	8cc#\	.	8ee\	.	2ryy	.	8ee\	mi-	2ryy	2ryy	2ryy	2ryy
8AA/	.	4ee\	.	4gg\	.	.	.	4gg\	-se-	.	.	.	.
8AA/	.	.	.	.	.	.	.	.	.	.	.	.	.
8D\J	.	8dd\	.	8ff#\	.	.	.	16ff#\LL	-re-	.	.	.	.
.	.	.	.	.	.	.	.	16dd\JJ	.	.	.	.	.
=109	=109	=109	=109	=109	=109	=109	=109	=109	=109	=109	=109	=109	=109
!LO:TX:t=P:problem:brak jednego taktu	!	!	!	!	!	!	!	!	!	!	!	!	!
2ryy	.	8cc#\	.	8ee\	.	2ryy	.	16cc#\LL	-re	2ryy	2ryy	2ryy	2ryy
.	.	.	.	.	.	.	.	16ee\JJ	.	.	.	.	.
.	.	4ee\	.	4gg\	.	.	.	4gg\	mi-	.	.	.	.
.	.	8dd\	.	8ff#\	.	.	.	16ff#\LL	-se-	.	.	.	.
.	.	.	.	.	.	.	.	16dd\JJ	.	.	.	.	.
=110	=110	=110	=110	=110	=110	=110	=110	=110	=110	=110	=110	=110	=110
8A\L	.	8cc#\L	.	8ee\L	.	2ryy	.	8cc#\L	-re-	2ryy	2ryy	2ryy	2ryy
8G\	.	8cc#\	.	8ee\J	.	.	.	16b\L	.	.	.	.	.
.	.	.	.	.	.	.	.	16a\JJ	.	.	.	.	.
8F#\	.	(8dd\	.	8ff#\L	.	.	.	8dd\	.	.	.	.	.
8G\J	.	8ee\J)	.	16gg\L	.	.	.	16gg\LL	-re	.	.	.	.
.	.	.	.	16ee\JJ	.	.	.	16ee\JJ	.	.	.	.	.
=111	=111	=111	=111	=111	=111	=111	=111	=111	=111	=111	=111	=111	=111
!LO:TX:t=P:problem:mixed beam	!	!	!	!	!	!	!	!	!	!	!	!	!
8A\L	.	4dd\	.	4dd\	.	2ryy	.	4dd\	no-	2ryy	2ryy	2ryy	2ryy
8A\	.	.	.	.	.	.	.	.	.	.	.	.	.
8AA/	.	4cc#\	.	4ee\T	.	.	.	4ee\	.	.	.	.	.
8AA/J	.	.	.	.	.	.	.	.	.	.	.	.	.
!	!	!	!	!	!	!	!	!LO:LB:g=original	!	!	!	!	!
=112	=112	=112	=112	=112	=112	=112	=112	=112	=112	=112	=112	=112	=112
!	!	!LO:TX:t=P:problem:mixed beam	!	!	!	!	!	!	!	!	!	!	!
8D\L	.	8dd\L	.	8dd\L	.	2ryy	.	8dd\	-bis	2ryy	2ryy	2ryy	2ryy
8BB/	.	8f#/	.	8ff#\J	.	.	.	8ff#\	no-	.	.	.	.
8E\	.	8g/	.	(16ee\LL	.	.	.	16ee\LL	.	.	.	.	.
.	.	.	.	16dd\)	.	.	.	16dd\	.	.	.	.	.
8E\J	.	8g/J	.	(16cc#\	.	.	.	16cc#\	.	.	.	.	.
.	.	.	.	16b\JJ)	.	.	.	16b\JJ	.	.	.	.	.
!LO:LB:g=original	!	!	!	!	!	!	!	!	!	!	!	!	!
=113	=113	=113	=113	=113	=113	=113	=113	=113	=113	=113	=113	=113	=113
8F#\L	.	(16a#X/LL	.	(16a#X/LL	.	2ryy	.	4a#X\	-bis	2ryy	2ryy	2ryy	2ryy
.	.	16f#/)	.	16f#/)	.	.	.	.	.	.	.	.	.
8F#\	.	(16a#/	.	(16a#/	.	.	.	.	.	.	.	.	.
.	.	16cc#\JJ)	.	16cc#\JJ)	.	.	.	.	.	.	.	.	.
8F#\	.	8ff#\L	.	8ff#\L	.	.	.	8r	.	.	.	.	.
8D\J	.	8b\J	.	8ff#\J	.	.	.	8ee\	mi-	.	.	.	.
=114	=114	=114	=114	=114	=114	=114	=114	=114	=114	=114	=114	=114	=114
8E\L	.	8b\L	.	(8gg\L	.	2ryy	.	8gg\L	.	2ryy	2ryy	2ryy	2ryy
8D\	.	8b\	.	8gg#X\)	.	.	.	8gg#X\J	.	.	.	.	.
8C#\	.	8b\	.	(8aa\	.	.	.	8aa\	.	.	.	.	.
8F#\J	.	8cc#\J	.	8aa#X\J)	.	.	.	8aa#X\	-se-	.	.	.	.
=115	=115	=115	=115	=115	=115	=115	=115	=115	=115	=115	=115	=115	=115
4BB/	.	8dd\	.	8bb\	.	2ryy	.	8bb\	-re-	2ryy	2ryy	2ryy	2ryy
.	.	4dd\	.	4b\	.	.	.	4b\	.	.	.	.	.
8r	.	.	.	.	.	.	.	.	.	.	.	.	.
8E\	.	8cc#\	.	8ee\	.	.	.	8ee\	-re	.	.	.	.
!	!	!	!	!LO:LB:g=original	!	!	!	!	!	!	!	!	!
=116	=116	=116	=116	=116	=116	=116	=116	=116	=116	=116	=116	=116	=116
!	!	!	!	!LO:TX:t=P:problem:klamra łukowa, kropka zamiast numeru	!	!	!	!	!	!	!	!	!
4F#\	.	4b\	.	12dd\L	.	2ryy	.	12dd\L	no-	2ryy	2ryy	2ryy	2ryy
.	.	.	.	12cc#\	.	.	.	12cc#\	.	.	.	.	.
.	.	.	.	12b\J	.	.	.	12b\J	.	.	.	.	.
4F#\	.	4a#X/	.	4cc#\t	.	.	.	4cc#\t	.	.	.	.	.
=117	=117	=117	=117	=117	=117	=117	=117	=117	=117	=117	=117	=117	=117
8BB/L	.	4b\	.	4b\	.	2ryy	.	4b\	-bis	2ryy	2ryy	2ryy	2ryy
8C#/	.	.	.	.	.	.	.	.	.	.	.	.	.
8D\	.	8r	.	8r	.	.	.	8r	.	.	.	.	.
8BB/J	.	8b\	.	8ff#\	.	.	.	8ff#\	mi-	.	.	.	.
=118	=118	=118	=118	=118	=118	=118	=118	=118	=118	=118	=118	=118	=118
!	!LO:DY:a:t=p&colon;	!	!	!	!	!	!	!	!	!	!	!	!
8E\L	p	8b\L	.	(8gg\L	.	2ryy	.	8gg\L	.	2ryy	2ryy	2ryy	2ryy
8D\	.	8b\	.	8gg#X\)	.	.	.	8gg#X\J	.	.	.	.	.
8C#\	.	8b\	.	(8aan\	.	.	.	8aa\	.	.	.	.	.
!	!	!	!	!	!	!	!	!LO:SIC:s=:v:-se-	!	!	!	!	!
8F#\J	.	8cc#\J	.	8aa#X\J)	.	.	.	8aa#X\	.	.	.	.	.
!	!	!	!	!	!	!	!	!LO:LB:g=original	!	!	!	!	!
=119	=119	=119	=119	=119	=119	=119	=119	=119	=119	=119	=119	=119	=119
4BB/	.	4dd\	.	8bb\	.	2ryy	.	8bb\	-re-	2ryy	2ryy	2ryy	2ryy
.	.	.	.	4b/	.	.	.	4b\	.	.	.	.	.
8r	.	8r	.	.	.	.	.	.	.	.	.	.	.
8E\	.	8cc#\	.	8ee\	.	.	.	8ee\	-re	.	.	.	.
=120	=120	=120	=120	=120	=120	=120	=120	=120	=120	=120	=120	=120	=120
!	!	!	!	!LO:TX:t=P:problem:klamra łukowa, kropka zamiast numeru	!	!	!	!	!	!	!	!	!
4F#\	.	4b\	.	12dd\L	.	2ryy	.	12dd\L	no-	2ryy	2ryy	2ryy	2ryy
.	.	.	.	12cc#\	.	.	.	12cc#\	.	.	.	.	.
.	.	.	.	12b\J	.	.	.	12b\J	.	.	.	.	.
4F#\	.	4a#X/	.	4cc#\t	.	.	.	4cc#\t	.	.	.	.	.
!	!	!LO:LB:g=original	!	!	!	!	!	!	!	!	!	!	!
=121	=121	=121	=121	=121	=121	=121	=121	=121	=121	=121	=121	=121	=121
!	!	!LO:SIC:o:s=:v:prawdopodobnie brak 2 taktów	!	!	!	!	!	!	!	!	!	!	!
4BB/	.	2ryy	.	8b\`L	.	2ryy	.	8b\	-bis	2ryy	2ryy	2ryy	2ryy
.	.	.	.	(8gg\	.	.	.	16gg\	mi-	.	.	.	.
.	.	.	.	.	.	.	.	16gg\	-se-	.	.	.	.
8r	.	.	.	8ff#\	.	.	.	8ff#\	-re-	.	.	.	.
8E\	.	.	.	8ee\J)	.	.	.	8ee\	-re	.	.	.	.
=122	=122	=122	=122	=122	=122	=122	=122	=122	=122	=122	=122	=122	=122
4F#\	.	2ryy	.	4dd\	.	2ryy	.	12dd\L	no-	2ryy	2ryy	2ryy	2ryy
.	.	.	.	.	.	.	.	12cc#\	.	.	.	.	.
.	.	.	.	.	.	.	.	12b\J	.	.	.	.	.
4F#\	.	.	.	4cc#\t	.	.	.	4cc#\t	.	.	.	.	.
=123	=123	=123	=123	=123	=123	=123	=123	=123	=123	=123	=123	=123	=123
!	!LO:DY:a	!LO:TX:i:a:t=Da capo	!	!LO:TX:i:t=Da Capo	!	!	!	!	!	!	!	!	!
8BB/L	f	2ryy	.	2ryy	.	2ryy	.	4b\	-bis	2ryy	2ryy	2ryy	2ryy
8BB/	.	.	.	.	.	.	.	.	.	.	.	.	.
8D\	.	.	.	.	.	.	.	4r	.	.	.	.	.
8BB/J	.	.	.	.	.	.	.	.	.	.	.	.	.
=124	=124	=124	=124	=124	=124	=124	=124	=124	=124	=124	=124	=124	=124
!LO:TX:t=P:problem:mixed beam	!	!	!	!	!	!	!	!	!	!	!	!	!
!	!	!	!	!	!	!	!	!LO:N:vis=00	!	!	!	!	!
8F#\L	.	2ryy	.	2ryy	.	2ryy	.	0r	.	2ryy	2ryy	2ryy	2ryy
8F#\	.	.	.	.	.	.	.	.	.	.	.	.	.
8FF#/	.	.	.	.	.	.	.	.	.	.	.	.	.
8BB/J	.	.	.	.	.	.	.	.	.	.	.	.	.
=125	=125	=125	=125	=125	=125	=125	=125	=125	=125	=125	=125	=125	=125
*tremolo	*	*	*	*	*	*	*	*	*	*	*	*	*
8AA#X/L	.	2ryy	.	2ryy	.	2ryy	.	.	.	2ryy	2ryy	2ryy	2ryy
8AA#X/	.	.	.	.	.	.	.	.	.	.	.	.	.
8AA#X/	.	.	.	.	.	.	.	.	.	.	.	.	.
8AA#X/J	.	.	.	.	.	.	.	.	.	.	.	.	.
*Xtremolo	*	*	*	*	*	*	*	*	*	*	*	*	*
=126	=126	=126	=126	=126	=126	=126	=126	=126	=126	=126	=126	=126	=126
8BB/L	.	2ryy	.	2ryy	.	2ryy	.	.	.	2ryy	2ryy	2ryy	2ryy
16BB/L	.	.	.	.	.	.	.	.	.	.	.	.	.
16C#/JJ	.	.	.	.	.	.	.	.	.	.	.	.	.
8D\L	.	.	.	.	.	.	.	.	.	.	.	.	.
8BB/J	.	.	.	.	.	.	.	.	.	.	.	.	.
=127	=127	=127	=127	=127	=127	=127	=127	=127	=127	=127	=127	=127	=127
*tremolo	*	*	*	*	*	*	*	*	*	*	*	*	*
8AA#X/L	.	2ryy	.	2ryy	.	2ryy	.	.	.	2ryy	2ryy	2ryy	2ryy
8AA#X/	.	.	.	.	.	.	.	.	.	.	.	.	.
8AA#X/	.	.	.	.	.	.	.	.	.	.	.	.	.
8AA#X/J	.	.	.	.	.	.	.	.	.	.	.	.	.
*Xtremolo	*	*	*	*	*	*	*	*	*	*	*	*	*
=128	=128	=128	=128	=128	=128	=128	=128	=128	=128	=128	=128	=128	=128
!	!	!	!	!	!	!	!	!LO:N:vis=00	!	!	!	!	!
8BB/L	.	2ryy	.	2ryy	.	2ryy	.	0r	.	2ryy	2ryy	2ryy	2ryy
16BB/L	.	.	.	.	.	.	.	.	.	.	.	.	.
16C#/JJ	.	.	.	.	.	.	.	.	.	.	.	.	.
8D\L	.	.	.	.	.	.	.	.	.	.	.	.	.
8D\J	.	.	.	.	.	.	.	.	.	.	.	.	.
=129	=129	=129	=129	=129	=129	=129	=129	=129	=129	=129	=129	=129	=129
4G\	.	2ryy	.	2ryy	.	2ryy	.	.	.	2ryy	2ryy	2ryy	2ryy
4G\	.	.	.	.	.	.	.	.	.	.	.	.	.
!LO:LB:g=original	!	!	!	!	!	!	!	!	!	!	!	!	!
=130	=130	=130	=130	=130	=130	=130	=130	=130	=130	=130	=130	=130	=130
8F#\L	.	2ryy	.	2ryy	.	2ryy	.	.	.	2ryy	2ryy	2ryy	2ryy
16F#\L	.	.	.	.	.	.	.	.	.	.	.	.	.
16E\JJ	.	.	.	.	.	.	.	.	.	.	.	.	.
8D#X\L	.	.	.	.	.	.	.	.	.	.	.	.	.
8BB\J	.	.	.	.	.	.	.	.	.	.	.	.	.
=131	=131	=131	=131	=131	=131	=131	=131	=131	=131	=131	=131	=131	=131
*tremolo	*	*	*	*	*	*	*	*	*	*	*	*	*
8BB/L	.	2ryy	.	2ryy	.	2ryy	.	.	.	2ryy	2ryy	2ryy	2ryy
8BB/	.	.	.	.	.	.	.	.	.	.	.	.	.
8BB/	.	.	.	.	.	.	.	.	.	.	.	.	.
8BB/J	.	.	.	.	.	.	.	.	.	.	.	.	.
=132	=132	=132	=132	=132	=132	=132	=132	=132	=132	=132	=132	=132	=132
!	!	!	!	!	!	!	!	!LO:N:vis=00	!	!	!	!	!
8BB/L	.	2ryy	.	2ryy	.	2ryy	.	0r	.	2ryy	2ryy	2ryy	2ryy
8BB/	.	.	.	.	.	.	.	.	.	.	.	.	.
8BB/	.	.	.	.	.	.	.	.	.	.	.	.	.
8BB/J	.	.	.	.	.	.	.	.	.	.	.	.	.
*Xtremolo	*	*	*	*	*	*	*	*	*	*	*	*	*
=133	=133	=133	=133	=133	=133	=133	=133	=133	=133	=133	=133	=133	=133
8D#X\L	.	2ryy	.	2ryy	.	2ryy	.	.	.	2ryy	2ryy	2ryy	2ryy
8D#\	.	.	.	.	.	.	.	.	.	.	.	.	.
8BB\	.	.	.	.	.	.	.	.	.	.	.	.	.
8BB\J	.	.	.	.	.	.	.	.	.	.	.	.	.
=134	=134	=134	=134	=134	=134	=134	=134	=134	=134	=134	=134	=134	=134
8E\L	.	2ryy	.	2ryy	.	2ryy	.	.	.	2ryy	2ryy	2ryy	2ryy
16G\L	.	.	.	.	.	.	.	.	.	.	.	.	.
16F#\JJ	.	.	.	.	.	.	.	.	.	.	.	.	.
16E\LL	.	.	.	.	.	.	.	.	.	.	.	.	.
16Dn\	.	.	.	.	.	.	.	.	.	.	.	.	.
16C#\	.	.	.	.	.	.	.	.	.	.	.	.	.
16BB\JJ	.	.	.	.	.	.	.	.	.	.	.	.	.
=135	=135	=135	=135	=135	=135	=135	=135	=135	=135	=135	=135	=135	=135
*tremolo	*	*	*	*	*	*	*	*	*	*	*	*	*
8AA/L	.	2ryy	.	2ryy	.	2ryy	.	.	.	2ryy	2ryy	2ryy	2ryy
8AA/	.	.	.	.	.	.	.	.	.	.	.	.	.
8AA/	.	.	.	.	.	.	.	.	.	.	.	.	.
8AA/J	.	.	.	.	.	.	.	.	.	.	.	.	.
=136	=136	=136	=136	=136	=136	=136	=136	=136	=136	=136	=136	=136	=136
!	!	!	!	!	!	!	!	!LO:N:vis=00	!	!	!	!	!
8AA/L	.	2ryy	.	2ryy	.	2ryy	.	0r	.	2ryy	2ryy	2ryy	2ryy
8AA/	.	.	.	.	.	.	.	.	.	.	.	.	.
8AA/	.	.	.	.	.	.	.	.	.	.	.	.	.
8AA/J	.	.	.	.	.	.	.	.	.	.	.	.	.
*Xtremolo	*	*	*	*	*	*	*	*	*	*	*	*	*
=137	=137	=137	=137	=137	=137	=137	=137	=137	=137	=137	=137	=137	=137
8C#/L	.	2ryy	.	2ryy	.	2ryy	.	.	.	2ryy	2ryy	2ryy	2ryy
8C#/	.	.	.	.	.	.	.	.	.	.	.	.	.
8AA/	.	.	.	.	.	.	.	.	.	.	.	.	.
8AA/J	.	.	.	.	.	.	.	.	.	.	.	.	.
=138	=138	=138	=138	=138	=138	=138	=138	=138	=138	=138	=138	=138	=138
8D\L	.	2ryy	.	2ryy	.	2ryy	.	.	.	2ryy	2ryy	2ryy	2ryy
16F#\L	.	.	.	.	.	.	.	.	.	.	.	.	.
16E\JJ	.	.	.	.	.	.	.	.	.	.	.	.	.
8D\L	.	.	.	.	.	.	.	.	.	.	.	.	.
8BB\J	.	.	.	.	.	.	.	.	.	.	.	.	.
=139	=139	=139	=139	=139	=139	=139	=139	=139	=139	=139	=139	=139	=139
8E\L	.	2ryy	.	2ryy	.	2ryy	.	.	.	2ryy	2ryy	2ryy	2ryy
8D\	.	.	.	.	.	.	.	.	.	.	.	.	.
8C#\	.	.	.	.	.	.	.	.	.	.	.	.	.
8F#\J	.	.	.	.	.	.	.	.	.	.	.	.	.
=140	=140	=140	=140	=140	=140	=140	=140	=140	=140	=140	=140	=140	=140
!	!	!	!	!	!	!	!	!LO:N:vis=00	!	!	!	!	!
4BB/	.	2ryy	.	2ryy	.	2ryy	.	0r	.	2ryy	2ryy	2ryy	2ryy
8r	.	.	.	.	.	.	.	.	.	.	.	.	.
8E\	.	.	.	.	.	.	.	.	.	.	.	.	.
=141	=141	=141	=141	=141	=141	=141	=141	=141	=141	=141	=141	=141	=141
4F#\	.	2ryy	.	2ryy	.	2ryy	.	.	.	2ryy	2ryy	2ryy	2ryy
4F#\	.	.	.	.	.	.	.	.	.	.	.	.	.
=142	=142	=142	=142	=142	=142	=142	=142	=142	=142	=142	=142	=142	=142
8BB/L	.	2ryy	.	2ryy	.	2ryy	.	.	.	2ryy	2ryy	2ryy	2ryy
16BB/L	.	.	.	.	.	.	.	.	.	.	.	.	.
16C#/JJ	.	.	.	.	.	.	.	.	.	.	.	.	.
8D\L	.	.	.	.	.	.	.	.	.	.	.	.	.
8BB\J	.	.	.	.	.	.	.	.	.	.	.	.	.
=143	=143	=143	=143	=143	=143	=143	=143	=143	=143	=143	=143	=143	=143
!	!LO:DY:a:t=p	!	!	!	!	!	!	!	!	!	!	!	!
8E\L	p	2ryy	.	2ryy	.	2ryy	.	.	.	2ryy	2ryy	2ryy	2ryy
8D\	.	.	.	.	.	.	.	.	.	.	.	.	.
8C#\	.	.	.	.	.	.	.	.	.	.	.	.	.
8F#\J	.	.	.	.	.	.	.	.	.	.	.	.	.
=144	=144	=144	=144	=144	=144	=144	=144	=144	=144	=144	=144	=144	=144
!	!	!	!	!	!	!	!	!LO:N:vis=00	!	!	!	!	!
4BB/	.	2ryy	.	2ryy	.	2ryy	.	0r	.	2ryy	2ryy	2ryy	2ryy
8r	.	.	.	.	.	.	.	.	.	.	.	.	.
8E\	.	.	.	.	.	.	.	.	.	.	.	.	.
=145	=145	=145	=145	=145	=145	=145	=145	=145	=145	=145	=145	=145	=145
4F#\	.	2ryy	.	2ryy	.	2ryy	.	.	.	2ryy	2ryy	2ryy	2ryy
4F#\	.	.	.	.	.	.	.	.	.	.	.	.	.
!LO:LB:g=original	!	!	!	!	!	!	!	!	!	!	!	!	!
=146	=146	=146	=146	=146	=146	=146	=146	=146	=146	=146	=146	=146	=146
!	!LO:DY:a:t=f	!	!	!	!	!	!	!	!	!	!	!	!
8BB\L	f	2ryy	.	2ryy	.	2ryy	.	.	.	2ryy	2ryy	2ryy	2ryy
8E\	.	.	.	.	.	.	.	.	.	.	.	.	.
8D\	.	.	.	.	.	.	.	.	.	.	.	.	.
8E\J	.	.	.	.	.	.	.	.	.	.	.	.	.
=147	=147	=147	=147	=147	=147	=147	=147	=147	=147	=147	=147	=147	=147
4F#\	.	2r	.	2ryy	.	2r	.	.	.	2r	2r	2r	2r
4F#\	.	.	.	.	.	.	.	.	.	.	.	.	.
=148	=148	=148	=148	=148	=148	=148	=148	=148	=148	=148	=148	=148	=148
4BB/	.	2ryy	.	2ryy	.	2ryy	.	2r	.	2ryy	2ryy	2ryy	2ryy
!LO:TX:t=P:problem:obustronna repetycja, fermata na kresce	!	!	!	!	!	!	!	!	!	!	!	!	!
4r	.	.	.	.	.	.	.	.	.	.	.	.	.
!	!	!	!	!	!	!	!	!LO:LB:g=original	!	!	!	!	!
=149||	=149||	=149||	=149||	=149||	=149||	=149||	=149||	=149||	=149||	=149||	=149||	=149||	=149||
*M4/4	*	*M4/4	*	*M4/4	*	*M4/4	*	*M4/4	*	*M4/4	*M4/4	*M4/4	*M4/4
*met(c)	*	*met(c)	*	*met(c)	*	*met(c)	*	*met(c)	*	*met(c)	*met(c)	*met(c)	*met(c)
!LO:TX:rj:i:b:t=Agnus	!	!LO:TX:rj:i:b:t=Agnus	!	!LO:TX:rj:i:b:t=Agnus	!	!	!	!	!	!	!LO:TX:rj:i:b:t=Agnus	!	!
!LO:TX:rj:i:a:t=Adagio	!	!LO:TX:rj:i:a:t=Adagio	!	!LO:TX:rj:i:a:t=Adagio	!	!	!	!LO:TX:rj:i:a:t=Adagio	!	!	!LO:TX:i:a:t=Ada&colon;	!	!
4B\	.	4dd#X\	.	4ff#\	.	4d#X\	A-	4ff#\	A-	00r	00r	1ryy	1ryy
4B\	.	4dd#\	.	4ff#\	.	4d#\	-gnus	4ff#\	-gnus	.	.	.	.
4A\	.	4dd#\	.	4ff#\	.	4d#\	a-	4ff#\	a-	.	.	.	.
!	!	!	!	!	!	!LO:SIC:s=:v:-gnus	!	!	!	!	!	!	!
4A\	.	4dd#\	.	4ff#\	.	4d#\	-nus	4ff#\	-gnus	.	.	.	.
=150	=150	=150	=150	=150	=150	=150	=150	=150	=150	=150	=150	=150	=150
4G\	.	4ee\	.	4gg\	.	4e\	De-	4gg\	De-	.	.	1ryy	1ryy
4E\	.	4ee\	.	4gg\	.	4e\	-i	4gg\	-i	.	.	.	.
2r;	.	2r;	.	2r;	.	2r;	.	2r;	.	.	.	.	.
=151	=151	=151	=151	=151	=151	=151	=151	=151	=151	=151	=151	=151	=151
4A\	.	4cc#\	.	4ee\	.	4c#\	qui	4ee\	qui	.	.	1ryy	1ryy
4A\	.	4cc#\	.	4ee\	.	4c#\	tol-	4ee\	tol-	.	.	.	.
4G\	.	4cc#\	.	4ee\	.	4c#\	-lis	4ee\	-lis	.	.	.	.
4G\	.	4cc#\	.	4ee\	.	4c#\	pec-	4ee\	pec-	.	.	.	.
=152	=152	=152	=152	=152	=152	=152	=152	=152	=152	=152	=152	=152	=152
4F#\	.	4dd\	.	4ff#\	.	4d\	-ca-	4ff#\	-ca-	.	.	1ryy	1ryy
!LO:TX:b:i:t=d	!	!	!	!	!	!	!	!	!	!	!	!	!
4D\	.	4dd\	.	4ff#\	.	4d\	-ta	4ff#\	-ta	.	.	.	.
2r	.	2r;	.	2r;	.	2r;	.	2r;	.	.	.	.	.
=153	=153	=153	=153	=153	=153	=153	=153	=153	=153	=153	=153	=153	=153
4F#\	.	4a\	.	4dd\	.	2A\	pec-	2dd\	pec-	0r	0r	1ryy	1ryy
4F#\	.	4a\	.	4dd\	.	.	.	.	.	.	.	.	.
8G\L	.	8b\L	.	8dd\L	.	8B\L	-ca-	8dd\L	-ca-	.	.	.	.
8A\J	.	8cc#\J	.	8ee\J	.	8c#\J	.	8ee\J	.	.	.	.	.
4B\	.	4dd\	.	4ff#\	.	4d\	-ta	4ff#\	-ta	.	.	.	.
=154	=154	=154	=154	=154	=154	=154	=154	=154	=154	=154	=154	=154	=154
*	*	*2\right	*	*2\right	*	*	*	*	*	*	*	*	*
4A\	.	2cc#\	.	2ee\	.	2c#\	mun-	2ee\	mun-	.	.	1ryy	1ryy
4AA/	.	.	.	.	.	.	.	.	.	.	.	.	.
2D\	.	2dd\	.	2ff#\	.	2d\	-di	2ff#\	-di	.	.	.	.
!LO:TX:i:b:t=Dona ut kirie Allo	!	!LO:TX:i:b:t=Dona ut Kirie Allo	!	!LO:TX:i:a:t=Dona Nobis ut Kirie \nAllo	!	!LO:TX:i:b:t=Dona nobis \nKyrie Allegro	!	!	!	!LO:TX:i:b:t=Dono Nobis \nUt kirie Allo	!LO:TX:i:t=Dona ut Kirie Allo	!	!
=:||:;	=||	=:||:;	=||	=||	=||	=||;	=||	=||;	=||	=||	=||	=||	=||
*-	*-	*-	*-	*-	*-	*-	*-	*-	*-	*-	*-	*-	*-
!!!system-decoration: [(s1,s2)][(s3,s4)][(s5,s6)][(s7,s8,s9)]
!!!RDF**kern: > = above
!!!RDF**kern: < = below
!!!RDF**dynam: p = pia
!!!RDF**dynam: f = for
!!!EED: Leszek Kubiak
!!!EST: 2020-09-22
!!!ENC: Andrzej Borzym
!!!END: 2020-05-22
